/* XPM */
static char *bdb570dfdfcf4f3db9410eb8a16daebftR5gRPoXLQzN86JS[] = {
/* columns rows colors chars-per-pixel */
"25 25 211 2 ",
"   c black",
".  c #465437",
"X  c #7B8869",
"o  c #384A20",
"O  c #90B16B",
"+  c #AABA99",
"@  c #2E3A19",
"#  c #465E24",
"$  c #85B157",
"%  c #AEC891",
"&  c #AFBCA2",
"*  c #354520",
"=  c #24380B",
"-  c #628A37",
";  c #78A947",
":  c #A3C482",
">  c #B2C39F",
",  c #A9BA9A",
"<  c #3F5027",
"1  c #2B400F",
"2  c #2A440B",
"3  c #7AAC48",
"4  c #72A441",
"5  c #8EB763",
"6  c #B2C69E",
"7  c #B1C19D",
"8  c #536938",
"9  c #304815",
"0  c #244102",
"q  c #486C22",
"w  c #7BAD42",
"e  c #6EA13E",
"r  c #7AA949",
"t  c #AFC994",
"y  c #B1C39C",
"u  c #A6BC94",
"i  c #50643E",
"p  c #314A15",
"a  c None",
"s  c #244305",
"d  c #699739",
"f  c #74A83B",
"g  c #6C9D39",
"h  c #6B9D38",
"j  c #A0C27D",
"k  c #AFC2A0",
"l  c #739A56",
"z  c #61A143",
"x  c #395519",
"c  c #2C4C07",
"v  c #264502",
"b  c #32550C",
"n  c #80B44A",
"m  c #6FA33A",
"M  c #689834",
"N  c #659632",
"B  c #8CB65F",
"V  c #ACC596",
"C  c #487E2C",
"Z  c #4E931D",
"A  c #4E7A1E",
"S  c #355609",
"D  c #3A590B",
"F  c #4D751D",
"G  c #7FB542",
"H  c #6B9F35",
"J  c #60902E",
"K  c #669734",
"L  c #7DAF49",
"P  c #ABC192",
"I  c #2C620B",
"U  c #448816",
"Y  c #9DB88D",
"T  c #549212",
"R  c #3C6008",
"E  c #4A6812",
"W  c #3C600D",
"Q  c #74AB1C",
"!  c #709F1D",
"~  c #689624",
"^  c #6D9E2E",
"/  c #7CAE45",
"(  c #92BB6D",
")  c #3A601C",
"_  c #3E501B",
"`  c #599A0E",
"'  c #45690D",
"]  c #36560A",
"[  c #2B4B09",
"{  c #68991A",
"}  c #699217",
"|  c #5B7F15",
" . c #5E8B13",
".. c #689918",
"X. c #618132",
"o. c #2F3A15",
"O. c #3C521A",
"+. c #60A90E",
"@. c #3D650E",
"#. c #2A4907",
"$. c #284703",
"%. c #558312",
"&. c #669118",
"*. c #5D8512",
"=. c #65901B",
"-. c #4D7418",
";. c #3C5814",
":. c #2F3B10",
">. c #50652D",
",. c #74B339",
"<. c #4B7122",
"1. c #3A5916",
"2. c #2D4C05",
"3. c #3E680A",
"4. c #679915",
"5. c #669618",
"6. c #456517",
"7. c #3E6011",
"8. c #395115",
"9. c #3E5917",
"0. c #628342",
"q. c #79B13D",
"w. c #537C23",
"e. c #476720",
"r. c #406217",
"t. c #39610C",
"y. c #649E1F",
"u. c #416814",
"i. c #325011",
"p. c #497211",
"a. c #456019",
"s. c #4A6E21",
"d. c #ADCE89",
"f. c #B3E56A",
"g. c #588924",
"h. c #3F6B16",
"j. c #3B6411",
"k. c #35650A",
"l. c #4C9816",
"z. c #3C710B",
"x. c #3E630C",
"c. c #4C7512",
"v. c #405B16",
"b. c #507823",
"n. c #5B9823",
"m. c #38720A",
"M. c #346607",
"N. c #326706",
"B. c #43A20E",
"V. c #449E0A",
"C. c #4D8D0D",
"Z. c #4B7219",
"A. c #3E5C19",
"S. c #508320",
"D. c #5FAA1E",
"F. c #3F9006",
"G. c #397009",
"H. c #327105",
"J. c #48B30F",
"K. c #40AD05",
"L. c #419F07",
"P. c #4A8120",
"I. c #3E6213",
"U. c #54862D",
"Y. c #6BC82E",
"T. c #50BB11",
"R. c #468A12",
"E. c #388C0B",
"W. c #4BC513",
"Q. c #47CF01",
"!. c #3CB802",
"~. c #3FA519",
"^. c #417015",
"/. c #7FA757",
"(. c #90F94C",
"). c #6ADE24",
"_. c #5AAC1F",
"`. c #52BA2B",
"'. c #48D018",
"]. c #46E504",
"[. c #39CE06",
"{. c #39D01C",
"}. c #449E21",
"|. c #7EEF4F",
" X c #63F04F",
".X c #50F465",
"XX c #4CDF39",
"oX c #41F601",
"OX c #2FE208",
"+X c #3BE628",
"@X c #46E237",
"#X c #96F85D",
"$X c #64F63F",
"%X c #49F638",
"&X c #4AE940",
"*X c #36FB05",
"=X c #31EB16",
"-X c #4EEB3D",
";X c #80EE66",
":X c #71E85D",
">X c #59EC42",
",X c #45EE3C",
"<X c #27F808",
"1X c #3FEE2E",
"2X c #5FE560",
"3X c #7AE964",
"4X c #4EEE48",
"5X c #2DEF1B",
"6X c #5AEB4B",
"7X c #63F268",
"8X c #4CEB4B",
/* pixels */
"                                                  ",
"                  . X                             ",
"                  o O +                           ",
"                @ # $ % &                         ",
"              * = - ; : > ,                       ",
"            < 1 2 3 4 5 6 7                       ",
"          8 9 0 q w e r t y u                     ",
"        i p a s d f g h j k l z                   ",
"        x c v b n m M N B V C Z                   ",
"        A S D F G H J K L P I U Y                 ",
"        T R E W Q ! ~ ^ / ( ) _                   ",
"        ` ' ] [ { } |  ...X.o.O.                  ",
"        +.@.#.$.%.&.*.=.-.;.:.>.                  ",
"        ,.<.1.2.3.4.5.6.7.8.9.0.                  ",
"        q.w.e.r.t.y.u.i.p.a.s.d.                  ",
"        f.g.h.j.k.l.z.x.c.v.b.                    ",
"          n.m.M.N.B.V.C.Z.A.S.                    ",
"          D.F.G.H.J.K.L.P.I.U.                    ",
"          Y.T.R.E.W.Q.!.~.^./.                    ",
"          (.)._.`.'.].[.{.}.                      ",
"            |. X.XXXoXOX+X@X                      ",
"            #X$X%X&X*X=X-X;X                      ",
"              :X>X,X<X1X2X                        ",
"                3X4X5X6X                          ",
"                  7X8X                            "
};
