/* XPM */
static char *_64c71418eff4b8995e9e59329c07211qW3GAn7MOCxpMacv[] = {
/* columns rows colors chars-per-pixel */
"50 50 228 2 ",
"   c None",
".  c #2E1B0B",
"X  c #361D0C",
"o  c #341E18",
"O  c #36230E",
"+  c #3C240D",
"@  c #3D290A",
"#  c #2D2213",
"$  c #2F2818",
"%  c #3A2817",
"&  c #3D3218",
"*  c #382E22",
"=  c #442C0C",
"-  c #492D0F",
";  c #46320E",
":  c #432D13",
">  c #432E1A",
",  c #492D1A",
"<  c #4C2F13",
"1  c #453216",
"2  c #4A3316",
"3  c #45341C",
"4  c #4B341B",
"5  c #4B3A1D",
"6  c #47391B",
"7  c #543514",
"8  c #533B13",
"9  c #5B3C16",
"0  c #52351A",
"q  c #543B1C",
"w  c #5B3C1C",
"e  c #683D17",
"r  c #4C3723",
"t  c #4C3B24",
"y  c #483725",
"u  c #533C23",
"i  c #5C3D24",
"p  c #553A26",
"a  c #432D26",
"s  c #5D421D",
"d  c #63421D",
"f  c #6A4B1F",
"g  c #724B1C",
"h  c #6F511E",
"j  c #544125",
"k  c #5C4223",
"l  c #5C4923",
"z  c #5B432C",
"x  c #56462D",
"c  c #5D4A33",
"v  c #554B36",
"b  c #634322",
"n  c #644A23",
"m  c #6C4B23",
"M  c #6D4D29",
"N  c #6A4824",
"B  c #734E24",
"V  c #724D2B",
"C  c #7B4C2A",
"Z  c #7D462C",
"A  c #6C522B",
"S  c #6C5729",
"D  c #765224",
"F  c #74522A",
"G  c #7A552B",
"H  c #7C5B2B",
"J  c #795727",
"K  c #7E4E33",
"L  c #685537",
"P  c #745333",
"I  c #735D34",
"U  c #7C5C34",
"Y  c #7D5B39",
"T  c #765939",
"R  c #664F36",
"E  c #75603E",
"W  c #78603A",
"Q  c #675941",
"!  c #7A5E40",
"~  c #7A6445",
"^  c #835C2C",
"/  c #8C5D2D",
"(  c #845729",
")  c #825B33",
"_  c #8C5C30",
"`  c #815C3B",
"'  c #865A38",
"]  c #915E2C",
"[  c #8A612E",
"{  c #83612F",
"}  c #9C6E2F",
"|  c #836334",
" . c #8A6234",
".. c #85623B",
"X. c #8B653B",
"o. c #87693A",
"O. c #8C6A3D",
"+. c #896A34",
"@. c #936533",
"#. c #946B33",
"$. c #9C6A34",
"%. c #946C3B",
"&. c #9A6E3C",
"*. c #9C6738",
"=. c #9A743E",
"-. c #937A3F",
";. c #A26E3B",
":. c #A9753D",
">. c #A17339",
",. c #B6793D",
"<. c #815D40",
"1. c #866944",
"2. c #8D6C43",
"3. c #856B4B",
"4. c #8A6949",
"5. c #9B6F42",
"6. c #966D42",
"7. c #8C754B",
"8. c #967244",
"9. c #9C7544",
"0. c #93754C",
"q. c #9E7A4B",
"w. c #9C7848",
"e. c #877655",
"r. c #947B54",
"t. c #9E7D57",
"y. c #A37544",
"u. c #A37945",
"i. c #AA7A46",
"p. c #A47C4A",
"a. c #AA7B4B",
"s. c #A47649",
"d. c #B17D4B",
"f. c #B47C42",
"g. c #A47A56",
"h. c #B07D50",
"j. c #B4803E",
"k. c #C7883E",
"l. c #938259",
"z. c #AD844B",
"x. c #A98246",
"c. c #B4834C",
"v. c #BB8B4B",
"b. c #B88446",
"n. c #AB8453",
"m. c #AD8B5B",
"M. c #A78558",
"N. c #B58654",
"B. c #BD8850",
"V. c #BC8D5A",
"C. c #B48C57",
"Z. c #A9935D",
"A. c #BA965A",
"S. c #988061",
"D. c #A98A66",
"F. c #B28F61",
"G. c #AF936F",
"H. c #BD9563",
"J. c #B79669",
"K. c #B69A77",
"L. c #BAA173",
"P. c #C38B41",
"I. c #C6894B",
"U. c #C59040",
"Y. c #C08B52",
"T. c #C28F5C",
"R. c #C49354",
"E. c #C4945A",
"W. c #C9955B",
"Q. c #CB995D",
"!. c #C99A59",
"~. c #D19A5D",
"^. c #DCA25F",
"/. c #E6B05D",
"(. c #C18C61",
"). c #C29564",
"_. c #C69A65",
"`. c #C99B68",
"'. c #CA9D71",
"]. c #CBA26D",
"[. c #C4A36C",
"{. c #DEAC6D",
"}. c #D8A865",
"|. c #CAA779",
" X c #D2AB75",
".X c #D1AC7B",
"XX c #D8A876",
"oX c #DAB37B",
"OX c #D9B177",
"+X c #DAB16E",
"@X c #E1AA66",
"#X c #E6B577",
"$X c #E4B06E",
"%X c #B9A587",
"&X c #BAA992",
"*X c #CBAB83",
"=X c #C8AA87",
"-X c #D3AD81",
";X c #DDB385",
":X c #DEBC8C",
">X c #D4B38A",
",X c #CAB895",
"<X c #DCBC94",
"1X c #D6B796",
"2X c #E4BC8B",
"3X c #E1BF9D",
"4X c #D3BFA3",
"5X c #D6C19C",
"6X c #DCC19D",
"7X c #DEC088",
"8X c #EBC38B",
"9X c #F2C998",
"0X c #F5D29F",
"qX c #DCCBAC",
"wX c #D8C3A7",
"eX c #E4CBA1",
"rX c #E2CAAE",
"tX c #E7D4AC",
"yX c #F6D8A7",
"uX c #ECD9BA",
"iX c #F3DDBB",
"pX c #E0C5B4",
"aX c #DED3C4",
"sX c #E6DAC6",
"dX c #E2DBD4",
"fX c #F0E2CF",
"gX c #F3E7D6",
"hX c #F1EFEC",
/* pixels */
"                                                                                                    ",
"                                                                                                    ",
"                                                                                                    ",
"                                                                                                    ",
"                                                                                                    ",
"                                                                                                    ",
"                                                                                                    ",
"                                                                                                    ",
"                                                                                                    ",
"                                                                                                    ",
"                                            K.,XqX3XJ.l.                                            ",
"                                    G.eXeXyX8X:X5XL.9X2X;X|.A.                                      ",
"                                &XrXyX8X#X#X#X9XeXJ [.9XOX+X+X_.q.                                  ",
"                              qXiXtXyX:X;XJ.=X<X>Xm n l.=X1X|.!.U.v.8.                              ",
"                            uXuXtXtXtXr.w 2 4 D.M.Y l & 3 r 7.oXP.k.Y.t.                            ",
"                          fXgXgXsXe.4 ! g.F.7.J ].s i X.+.I z , 9.I.P.v.F.                          ",
"                        sXgXhXdXR I 0.K.H.H.F.p.%.D O.%.%.6.X.U 7 G E.P.!.3.                        ",
"                      wXiXfXsXt 1.F.'.-X.XH.).).V.N.N.%.y.s.%.2.U q V E.R.n.1.                      ",
"                    K.2X.XsXu 1.n.].:X<X<X-X'._.W.B.c.=.u.y.y.%.2.T w U A.z.5.                      ",
"                    .X}.oX~ U m.H..X6XwX6X<X.X].E.v.z.=.a.i.y.9.=.5.G q G.m.&.~                     ",
"                  t.{.@XF.w M.H.H.|.wXwX4X6X2X XE.C.u.p.i.i.y.y.&.$.{ s t G.%.2.                    ",
"                  ]./.#XP o.N.T._._.<XrXrX'.;XXXi.V.9.a.i.a.i.y.5. .H A : 4.#.%.                    ",
"                  XX/.].7 #.b.B.Q.`.oX;XpX&X~._.w V.n.p.h.d.d.i.#. .U J k c $.5.Y                   ",
"                M.{.$X..p 8.c.v.W.].$X#XwXaX_.0.3 ) z.x.,.I.I.:.$.' ` ( R # u.8.X.                  ",
"                q.}.Q.3.r ` y.d.R.~.}.@X<XfX*XA ~ g %.x.P.k.,.,.*.' ` C p z p.m.q.                  ",
"                9.H.|.%Xe.8 _ ;.Y.W.^.@XoX&X' >X7X:.` ` E.v.j.:.%.) V w i *X| m.m.                  ",
"                g.=XiX,Xr.r.B @.d.W.Q.R.@.w a.V.OXf.T i 9 ^ =.=. .g d c |. XI O.q.                  ",
"                r.E L A 8 & 9 X.@.@.%.| b 6 b.Y.(.@.k s n m F M n k q * b ( 6 n ..                  ",
"                r.Z.o.I O : F  ./  .n.8.0.I ^ &.C e U | 2.G F b k p 4 & X ..4  .8.                  ",
"                K.A.C.I # A F J H =.n.=.=.9.` P <.Y F w.G G m n q 4 4 r 3 % o.;.0.                  ",
"                S..XA.q.X k A S h q.=.9.+.| ..P - n | H H B N s 0 4 4 t q , w.$.3.                  ",
"                  -X}.H.: 4 l f | %./ _ / ^ ^ U 9 U G D B N b w 0 4 4 t 4 P %.&.~                   ",
"                  K.{.c.V > q n U _ _ _ / ( ( ^ G | F F N d b q 2 r 5 l X n.&.9.z                   ",
"                  T +Xb.p.. 6 k A m B F G D B m M M M b b b 0 4 4 4 j 1 3.n.$.|                     ",
"                    H.Y.>.! # 6 s n d s s k b b b b b w q < 2 1 4 t q > |.6.} 8                     ",
"                    i _.>.;.z O 4 q s w s k i i w q 4 1 1 2 2 2 4 t + .Xp.%.)                       ",
"                      1.=.$.#.i o a 6 q q q p 4 : a 3 4 2 2 4 4 4 + J.c.#.%.-                       ",
"                      & U $.@.#.W o % 1 6 y > X E O 3 t u u 4 : p K.V.$.%.q y                       ",
"                        1 G @.[ +.Z.u . # $ O r.J.b + 6 5 @ : I D.m.p.&.9 t                         ",
"                          1 m ..) #.A.G.Q O 4. X[.m E O k P O.X. .%.2.2 y                           ",
"                            u 7 C Z K g D q.u.x.-.; 5 M.X. .@.] @.D = t                             ",
"                              x 2 0 Y P V m m t.r.8 M.#.[  .X.A 2 4 y                               ",
"                                c x = 8 s b M M 1.r.m.^ B w - 1 j                                   ",
"                                    Q v t & : = = = @ = 4 t v v                                     ",
"                                            x t t j t c                                             ",
"                                                                                                    ",
"                                                                                                    ",
"                                                                                                    ",
"                                                                                                    ",
"                                                                                                    "
};
