/* XPM */
static char *_5ce84545e534965a9825edb5c98e06a96p1z4UAh1ZVNdyG[] = {
/* columns rows colors chars-per-pixel */
"50 50 222 2 ",
"   c None",
".  c #1E3804",
"X  c #213606",
"o  c #243D05",
"O  c #253709",
"+  c #2C3C0C",
"@  c #313B0C",
"#  c #2C3813",
"$  c #2C3B1A",
"%  c #253211",
"&  c #323B1B",
"*  c #252C0E",
"=  c #254403",
"-  c #284703",
";  c #274A03",
":  c #2A4A04",
">  c #2A460A",
",  c #2D4A0B",
"<  c #334D0C",
"1  c #36400B",
"2  c #2A5406",
"3  c #305304",
"4  c #355B03",
"5  c #34550D",
"6  c #3C5C0C",
"7  c #36590D",
"8  c #2E4413",
"9  c #304711",
"0  c #334D12",
"q  c #364A18",
"w  c #345311",
"e  c #3A5314",
"r  c #3C5B14",
"t  c #3D551C",
"y  c #375917",
"u  c #2D6B05",
"i  c #336306",
"p  c #336C06",
"a  c #35630A",
"s  c #3B640B",
"d  c #356A09",
"f  c #3C6B0C",
"g  c #3B6704",
"h  c #2D7404",
"j  c #387508",
"k  c #3C6212",
"l  c #3C6815",
"z  c #367918",
"x  c #384A20",
"c  c #3F5B20",
"v  c #3B6421",
"b  c #425C14",
"n  c #425918",
"m  c #43640C",
"M  c #466A0B",
"N  c #46760A",
"B  c #597F0F",
"V  c #486615",
"C  c #496C16",
"Z  c #44651C",
"A  c #456B1A",
"S  c #4C6B18",
"D  c #476910",
"F  c #447311",
"G  c #4C7C1D",
"H  c #4A7817",
"J  c #5A7E15",
"K  c #517A19",
"L  c #435626",
"P  c #496823",
"I  c #486626",
"U  c #4B7525",
"Y  c #537921",
"T  c #5B7837",
"R  c #517641",
"E  c #3C8707",
"W  c #3A9C02",
"Q  c #3A9907",
"!  c #368611",
"~  c #3BAA02",
"^  c #3EB514",
"/  c #3BB902",
"(  c #5D830E",
")  c #479F0C",
"_  c #448C11",
"`  c #488616",
"'  c #5C8413",
"]  c #5E8914",
"[  c #5B821E",
"{  c #5B8C1B",
"}  c #4B9A15",
"|  c #509A1A",
" . c #559718",
".. c #50920C",
"X. c #608D0F",
"o. c #64960D",
"O. c #638E15",
"+. c #628B19",
"@. c #639313",
"#. c #659319",
"$. c #6C9D1B",
"%. c #669C16",
"&. c #719F16",
"*. c #45AA08",
"=. c #44A505",
"-. c #5BA309",
";. c #47B904",
":. c #4BA414",
">. c #54A616",
",. c #50BC11",
"<. c #4AB51C",
"1. c #60AF04",
"2. c #6CA415",
"3. c #74AB1C",
"4. c #75A619",
"5. c #70B310",
"6. c #558322",
"7. c #5C8D2B",
"8. c #578628",
"9. c #538E2E",
"0. c #62922E",
"q. c #6C9B2B",
"w. c #699A26",
"e. c #628C33",
"r. c #659532",
"t. c #679934",
"y. c #6B9C35",
"u. c #6B9D3A",
"i. c #49AE2E",
"p. c #55B528",
"a. c #5EBE30",
"s. c #61A221",
"d. c #74A820",
"f. c #6EA13C",
"g. c #69A435",
"h. c #71A43B",
"j. c #74A93D",
"k. c #79AC3B",
"l. c #76A735",
"z. c #7BB539",
"x. c #66BB24",
"c. c #37C806",
"v. c #25DF01",
"b. c #39D508",
"n. c #36DA1A",
"m. c #29F50E",
"M. c #28F605",
"N. c #34FC03",
"B. c #3BF502",
"V. c #2AEA0C",
"C. c #36DD22",
"Z. c #37E72E",
"A. c #37EC2C",
"S. c #3CF02E",
"D. c #3EF538",
"F. c #49C405",
"G. c #47D001",
"H. c #46DD01",
"J. c #5BCE19",
"K. c #60CF1F",
"L. c #46E805",
"P. c #46F600",
"I. c #66E41C",
"U. c #4FCF25",
"Y. c #48D427",
"T. c #43CB30",
"R. c #4FD23E",
"E. c #51C928",
"W. c #45E72D",
"Q. c #47E937",
"!. c #52EC3D",
"~. c #44FB3B",
"^. c #4CF438",
"/. c #53FD36",
"(. c #73E52F",
"). c #78EB38",
"_. c #6A804D",
"`. c #719350",
"'. c #73A542",
"]. c #78AC44",
"[. c #7CAB4B",
"{. c #76A944",
"}. c #7DB248",
"|. c #3FF55F",
" X c #4DEC47",
".X c #53E845",
"XX c #54E859",
"oX c #4CF451",
"OX c #67F546",
"+X c #7FF35F",
"@X c #6BEC4D",
"#X c #79DB64",
"$X c #5DEA64",
"%X c #5CF07D",
"&X c #63F46E",
"*X c #6AE163",
"=X c #80AE4E",
"-X c #83B44C",
";X c #84BB4B",
":X c #83AD57",
">X c #84B253",
",X c #89BA52",
"<X c #8BB95B",
"1X c #819A63",
"2X c #8CB670",
"3X c #96B879",
"4X c #8CAF65",
"5X c #8FC356",
"6X c #9CC473",
"7X c #9EB680",
"8X c #A8B799",
"9X c #B2BDA1",
"0X c #ABCA8A",
"qX c #ABCD85",
"wX c #ADC49A",
"eX c #ADC595",
"rX c #B1CE95",
"tX c #B2C49D",
"yX c #B4CB9C",
"uX c #B2C3A2",
"iX c #B5C8A2",
"pX c #ADC6A2",
/* pixels */
"                                                                                                    ",
"                                                                                                    ",
"                                                                                                    ",
"                                                                                                    ",
"                                      $ 1X                                                          ",
"                                      q :X3X                                                        ",
"                                    * T >X2X                                                        ",
"                                  % O '.[.:X0X                                                      ",
"                                $ X w >X].[.6XwX                                                    ",
"                              x O X T }.{.{.<XrXuX                                                  ",
"                              + o . =X].'.'.[.qXtXuX                                                ",
"                            8 o o y ,X{.'.h.{.6XyXuXtX                                              ",
"                          8 = o o e.-Xj.'.f.h.<XrXiXtXtX                                            ",
"                        q > = o = [.z.h.f.u.u.[.0XtXtXwX                                            ",
"                      x > - = = r ,Xk.h.u.u.t.h.6XyXuXuX7X                                          ",
"                      , : = o = 8.;Xj.f.y.u.r.y.>XrXpX9X1Xz                                         ",
"                    , : = = - ; -X-Xj.f.y.t.r.r.{.0XwXwX`.h r.                                      ",
"                  y 3 ; - - - k 5X}.h.y.t.r.r.r.h.6XeXeXR h _                                       ",
"                  U 4 < 3 3 ; e.,X}.h.t.0.0.r.t.f.<XrXwXy u E                                       ",
"                  7.4 e m V C 0.z.z.l.0.7.0.r.u.h.-X0X8X2 u _ U                                     ",
"                   .6 6 m S b F 3.3.d.q.y.q.q.t.'.}.6X7X2 U 7 L                                     ",
"                  -.s 6 M V , 4 3.5.4.O.+.#.w.l.k.-X<X2XI 8 1                                       ",
"                  -.m m D < > ; w.3.4.' J ' ] @.o.$.k._.# $ <                                       ",
"                  -.M C 5 - > ; K 3.4.B J J ' X.@.q.6.c @ & t                                       ",
"                  1.F r , - - : g 3.&.J ( ' ] @.y.C C 8 @ & I                                       ",
"                  1.F , : : - - 3 $.$.[ ( ] #.q.k s K # @ 8 T                                       ",
"                    G c 5 , : - ; { $.+.X.#.q.r 0 f A # + r                                         ",
"                    6.I P n 5 : ; H 2.o.o.q.7 9 e F k q L U                                         ",
"                    7.P P P Z r 5 s 2.%.w.5 9 w g K Z b I Y                                         ",
"                    w.A Z Z Z k r a s.w.s 0 0 7 g [ n b Z 6.                                        ",
"                    k.H A A l k k d | E i 7 r k N 6.n r A e.                                        ",
"                      H l l s s a p } :.| j g M N Y n r H                                           ",
"                      ` j d d a i p :.W ) >._ N K A n k G                                           ",
"                      | j p p i i p :.~ W W :...6.r n v 8.                                          ",
"                      >.E E j i u h <.*.~ Q Q :.g.e t f 9.                                          ",
"                      z.) Q j f p h p.;.;.*.=.W p.b e F                                             ",
"                        ,.*._ F j ! E.F.G.;.;.~ ^ 6.5 H                                             ",
"                        J.,.} ` E Q U.F.H.G.c./ c.i.a G                                             ",
"                        (.K.>.| } ^ U.F.L.H.b.F.c.T.! `                                             ",
"                        ).I.x.p.a.*XR.b.L.L.b.c.b.Z.Y.9.                                            ",
"                          ).#X@X&X%X$Xb.P.B.b.v.n.Q.Z.                                              ",
"                          +XOX~.oX|.$Xb.P.N.V.v.A.W.                                                ",
"                            @X/.^.D.XXn.B.N.M.C.Q..X                                                ",
"                              OX^.^.XXW.B.N.M.A.!.                                                  ",
"                                OX^.D..XM.N.m. X                                                    ",
"                                  @XD. XM.m.S.                                                      ",
"                                     X XM.m.                                                        ",
"                                      XXA.Q.                                                        ",
"                                         X                                                          ",
"                                                                                                    "
};
