/* XPM */
static char *_41802d4d2bc49f0a4a560493ba3f27bldN28bDQOv6Mo3iq[] = {
/* columns rows colors chars-per-pixel */
"50 50 206 2 ",
"   c None",
".  c #392D32",
"X  c #3D3737",
"o  c #441E1D",
"O  c #4D1E1A",
"+  c #4E1B15",
"@  c #551D14",
"#  c #591F13",
"$  c #46221D",
"%  c #4D221D",
"&  c #4D2217",
"*  c #562314",
"=  c #5A2115",
"-  c #54241B",
";  c #5F2719",
":  c #5C2A1C",
">  c #622616",
",  c #632A16",
"<  c #692B16",
"1  c #622719",
"2  c #642B1B",
"3  c #6B2E1C",
"4  c #6E331D",
"5  c #6E381E",
"6  c #67301F",
"7  c #72331D",
"8  c #7A361F",
"9  c #763A1F",
"0  c #442224",
"q  c #4C2421",
"w  c #4D2922",
"e  c #4F2F2A",
"r  c #452D2E",
"t  c #542724",
"y  c #5A2724",
"u  c #532A24",
"i  c #5B2B25",
"p  c #532D2C",
"a  c #592B29",
"s  c #4C3229",
"d  c #5C3B2B",
"f  c #573627",
"g  c #5A2E30",
"h  c #42333B",
"j  c #553234",
"k  c #5B3934",
"l  c #5A363D",
"z  c #682D20",
"x  c #652F23",
"c  c #6E3522",
"v  c #6E3822",
"b  c #63312B",
"n  c #6B362A",
"m  c #633526",
"M  c #723522",
"N  c #763A24",
"B  c #7A3C25",
"V  c #763D2B",
"C  c #783C2A",
"Z  c #613B3B",
"A  c #6A412D",
"S  c #64412A",
"D  c #774126",
"F  c #7C4227",
"G  c #75412B",
"H  c #7D442C",
"J  c #7E492D",
"K  c #794A28",
"L  c #724431",
"P  c #7D4632",
"I  c #7E4933",
"U  c #7D4B39",
"Y  c #4E3A43",
"T  c #543A44",
"R  c #5B454C",
"E  c #564547",
"W  c #5E545A",
"Q  c #634546",
"!  c #624A46",
"~  c #654D59",
"^  c #63525C",
"/  c #79565E",
"(  c #5F5564",
")  c #5B5D6D",
"_  c #635666",
"`  c #6B5A65",
"'  c #655969",
"]  c #5E6273",
"[  c #5F687B",
"{  c #67616F",
"}  c #69646F",
"|  c #7E6263",
" . c #636474",
".. c #6D6374",
"X. c #646679",
"o. c #64697A",
"O. c #6C6C7D",
"+. c #656A76",
"@. c #746571",
"#. c #796F7F",
"$. c #766977",
"%. c #6C707D",
"&. c #70747F",
"*. c #804A27",
"=. c #81462B",
"-. c #81492C",
";. c #884F2F",
":. c #814631",
">. c #844B32",
",. c #894E34",
"<. c #865032",
"1. c #895035",
"2. c #877179",
"3. c #676C80",
"4. c #6C6E82",
"5. c #716F85",
"6. c #6C7184",
"7. c #6D7288",
"8. c #727385",
"9. c #7C7484",
"0. c #74768C",
"q. c #747A8B",
"w. c #797B8C",
"e. c #767C86",
"r. c #767D91",
"t. c #7B7D92",
"y. c #877984",
"u. c #857F92",
"i. c #7D808F",
"p. c #7D8195",
"a. c #7E8398",
"s. c #82828C",
"d. c #818394",
"f. c #868A90",
"g. c #82859B",
"h. c #848A9D",
"j. c #8A8B9C",
"k. c #8C8A93",
"l. c #968694",
"z. c #95848A",
"x. c #A7969B",
"c. c #858CA1",
"v. c #8B8DA3",
"b. c #8C8FA8",
"n. c #8B91A6",
"m. c #8E90AA",
"M. c #9295A7",
"N. c #9294AB",
"B. c #949BAD",
"V. c #999CAD",
"C. c #9A92A8",
"Z. c #8C94B0",
"A. c #959AB4",
"S. c #9B9EB5",
"D. c #AB9BA5",
"F. c #A595A4",
"G. c #9DA1B6",
"H. c #B4A5AD",
"J. c #A3A2B7",
"K. c #A9ACB2",
"L. c #A4A9BA",
"P. c #A5A6BC",
"I. c #B4A8B4",
"U. c #B2B4BE",
"Y. c #A8A7AD",
"T. c #A3A7C1",
"R. c #A6AEC5",
"E. c #B7AFC1",
"W. c #ACB2C2",
"Q. c #AEB3CB",
"!. c #AAB4C8",
"~. c #B2B4C4",
"^. c #B3B5CC",
"/. c #B3B9CD",
"(. c #B9B8C6",
"). c #B3B6D1",
"_. c #B6BBD2",
"`. c #BABDD9",
"'. c #BABAD2",
"]. c #BCC1D4",
"[. c #BCC1DA",
"{. c #C1C3CE",
"}. c #C9CBD7",
"|. c #C3C5DC",
" X c #C4C8DE",
".X c #CDCFDE",
"XX c #C1C4D5",
"oX c #D4CEDA",
"OX c #CED2DE",
"+X c #CCD1D6",
"@X c #D5D6DB",
"#X c #C1C5E0",
"$X c #CACDE1",
"%X c #CCCFE9",
"&X c #C4CAE3",
"*X c #CBD1E8",
"=X c #D3D6E4",
"-X c #D4D9E5",
";X c #D3D4EA",
":X c #D6DAED",
">X c #DEDFEA",
",X c #D4D9F3",
"<X c #DBE1EF",
"1X c #DDE2F4",
"2X c #E1E5ED",
"3X c #E2E4F1",
/* pixels */
"                                                                                                    ",
"                                                                                                    ",
"                                                                                                    ",
"                                                                                                    ",
"                                                                                                    ",
"                                            (.>X.X~.p.                                              ",
"                                    Y.}.V.8..XXXW.n.r.O.+XOXh.                                      ",
"                                  @X2X*XA.6.B.N.w.0.3.0.;X%X^.d.                                    ",
"                              4.V.:X XL.t.' ^ T Y Y W 9.J._.Q.h.X.                                  ",
"                            U. Xj.~.J.9.R j - y + n * p ~ j.c.4.O.g.O.                              ",
"                          @X>X^.p.5.@.p - n 3 6 @ M < 1 b p ` ..P.Q.g.4.                            ",
"                        U.=X/.Z.w.E u : 2 C 7 c # C < > c 2 % R oX&XT.t.o.                          ",
"                      s.M.A.c.w.E : 8 c 6 H B C # B 7 3 C < > t | E.^.p.X.)                         ",
"                    K.-XW.6.O.Q i 2 B C N I -.C # F 7 3 N , > 2 x / C.0.v.8. .                      ",
"                    OX;XQ.p.~ i 7 3 :.-.H I -.C # =.7 4 V 3 2 : 7 - 2..X[.v.8.                      ",
"                  e.$X[.G.} Z M 7 7 ,.H V I -.H # >.9 3 V 4 , ; 4 2 Z I.#XA.0. .                    ",
"                  j.N.A.9.j V 8 F M ,.H V P =.H # ,.B 3 V 7 3 2 4 1 y l ^.R.6.O.                    ",
"                K.:Xp.7._ t C F =.M ,.-.V I -.H = ,.=.c V 7 6 2 c > ; b $.d.c.v.O.                  ",
"                =X;XB.O.j x P -.J M ,.-.V P -.J = ,.=.N V 9 c 2 4 1 ; n k I.,XQ.d.                  ",
"              i.:X Xn._ i M P -.J M ,.-.G I -.J = ,.-.G V 9 M 2 4 1 1 n : x.,X[.g.                  ",
"              q.|.Q.t.T c N I -.J c ,.-.G I -.J = ,.=.G V 9 M 3 9 , ; c 2 Q  XQ.p. .                ",
"              &.B.c.O.j M B U -.J c ,.-.G P -.J = ,.-.G H 9 M z N 3 1 n > k E.v.4.]                 ",
"              U.M.4.( i M V I -.J c ,.-.G I *.J = >.-.V P 9 c 2 N 3 > M < - @.7.7.8.                ",
"            f.1X&XR...: F V I -.J c ,.-.G I *.J = >.-.H :.9 7 2 N M , M 3 - z.-XR.g.                ",
"            w.*X`.m.` 2 B G I -.J c ,.-.G I *.J = ,.-.H :.B 7 3 N M 3 c , * x.<X[.g. .              ",
"            8.^.S.t.T C =.G I -.J c ,.-.G I *.J = ,.-.V :.=.7 3 N M 3 M > , Q ;X_.r. .              ",
"              p.g.5.l V =.G I -.J 5 ,.-.H P K G = ,.L L :.=.7 , N 7 3 M , , Z XXG.6.                ",
"              q.3. .g B J G I -.-.5 ,.=.V e ! A = I ! e I =.N 2 9 7 3 M , > p u.4.]                 ",
"            k.-XW.{ t F J G I -.J 5 ,.-.D s W d = L W r U =.N 2 9 7 3 B , > % y.'.n.+.              ",
"            ~.,XT.#.t -.J G I -.-.5 ,.=.V A E d = L E f U -.B 3 N 7 3 B , 2 % H.,XS.6.              ",
"            M.).b...y >.J G I -.J 5 ,.-.V A h d = L X f :.=.F 3 N 7 3 B 2 2 % F.#XA.6.              ",
"            %.a.w.' a >.J G I -.J 5 ,.-.G A . f * L . f :.=.=.z N 7 3 C 2 2 % l.Q.h. .              ",
"            K.t.3.( a ,.J G I -.J v ,.-.G G p S = I s m I -.F z N 7 3 C 2 2 % @.q.4.0.              ",
"          f.2X|.S.#.a >.J G I -.J v ,.-.G J J K = >.H G I =.F 3 N 7 3 B < 2 O D.:X_.g.              ",
"          4./.^.n.$.a >.J G I -.J c ,.-.G =.*.J = ,.*.D I =.J 3 N 7 3 C 4 2 O D.*X~.t. .            ",
"            d.v.q._ a <.J G I -.>.c ,.-.D I K P # ,.=.G I -.H z N 7 3 C 4 2 O l.^.v.4.              ",
"            o.o.o._ a <.J G I -.I c ,.-.D I J P # >.=.G I -.C z N 7 3 C 4 2 % ` 0.4.X.              ",
"            {.A.r._ a >.J G I -.>.c ,.-.G I J P # >.-.G I -.C 3 N 7 3 B 4 2 % y.L.N.0.              ",
"          k.3X|.B...a >.J G I -.-.c ,.-.G I -.P # ,.*.G I -.C 3 N 7 3 B 7 2 % H.1X`.g.              ",
"          d.$XQ.g.' a >.J G I -.>.c ,.-.D I -.P # ,.*.G I -.C 3 N 7 3 B 7 2 % F.%XQ.g.              ",
"            V.n.q._ a <.J G I -.I c ,.-.F I J P = ,.*.G I =.C 2 N 7 3 B 7 , % l./.n.t.              ",
"            O.7.[ ( a >.J G I -.>.M ,.-.B P -.P # >.-.D I -.C 3 N 7 3 B 7 , - _ q.3.]               ",
"            }.L.r.{ a 1.-.G P -.-.c ;.-.D >.-.P # >.-.F I -.N 3 N 7 3 C c 2 % y.L.N.r.              ",
"          d.$X).n.9.a H V c H B C c H V c H B V * P N v G N c 2 9 3 2 C 4 > & H.<X].c.              ",
"            V.v.r.O.t N 3 2 M < 3 2 M 3 2 M 3 3 # N 2 > M < > 2 4 , > M 3 2 - x.].L.d.              ",
"              o. .  0 w $ $ u % % 0 w % $ w % q o u % $ u % % 0 w w % w q q o   q.4. .              ",
"                                                                                                    ",
"                                                                                                    ",
"                                                                                                    ",
"                                                                                                    "
};
