/* XPM */
static char *_285f9a642c04e78f34a060bc87a6448eezxyvScwW2r2tar[] = {
/* columns rows colors chars-per-pixel */
"50 50 204 2 ",
"   c None",
".  c #040303",
"X  c #0A0404",
"o  c #0F0609",
"O  c #0C0A09",
"+  c #090806",
"@  c #130A0B",
"#  c #1C0D0D",
"$  c #170809",
"%  c #17110D",
"&  c #1B120C",
"*  c #1E1110",
"=  c #230F0E",
"-  c #2A110D",
";  c #34130F",
":  c #38140E",
">  c #2B0F11",
",  c #230F10",
"<  c #2F1610",
"1  c #361412",
"2  c #391613",
"3  c #371812",
"4  c #2C212C",
"5  c #3E2F31",
"6  c #392E3A",
"7  c #451D15",
"8  c #481D19",
"9  c #462117",
"0  c #492117",
"q  c #462119",
"w  c #4A221A",
"e  c #5E2717",
"r  c #5C2916",
"t  c #54221A",
"y  c #5D261A",
"u  c #54281D",
"i  c #5C291A",
"p  c #522117",
"a  c #612717",
"s  c #642C16",
"d  c #6A2F17",
"f  c #612719",
"g  c #642C1B",
"h  c #6A2E1B",
"j  c #712F1E",
"k  c #6A3017",
"l  c #66301C",
"z  c #6C311D",
"x  c #673017",
"c  c #71331D",
"v  c #76391F",
"b  c #78391F",
"n  c #4B2923",
"m  c #462826",
"M  c #542621",
"N  c #562C24",
"B  c #5A2B23",
"V  c #592E2B",
"C  c #582A27",
"Z  c #593327",
"A  c #55332D",
"S  c #5C352B",
"D  c #412832",
"F  c #592F31",
"G  c #4C323F",
"H  c #44373B",
"J  c #553739",
"K  c #583938",
"L  c #652D22",
"P  c #6A2E20",
"I  c #643222",
"U  c #6C3221",
"Y  c #6D3B23",
"T  c #69372A",
"R  c #723522",
"E  c #743A24",
"W  c #793B22",
"Q  c #743C2A",
"!  c #7A3E2A",
"~  c #643B34",
"^  c #7C4227",
"/  c #7D442C",
"(  c #7B4431",
")  c #4D3441",
"_  c #493843",
"`  c #533744",
"'  c #533D49",
"]  c #573C4B",
"[  c #5D464D",
"{  c #57464A",
"}  c #5E4A54",
"|  c #554B57",
" . c #684949",
".. c #644E59",
"X. c #6A4E54",
"o. c #64525D",
"O. c #765659",
"+. c #665A69",
"@. c #6B5E6C",
"#. c #685865",
"$. c #775E64",
"%. c #6A5F70",
"&. c #646575",
"*. c #666976",
"=. c #696976",
"-. c #66697B",
";. c #696B7C",
":. c #6B6679",
">. c #7B6875",
",. c #796266",
"<. c #83462B",
"1. c #83492D",
"2. c #864D33",
"3. c #824730",
"4. c #866D75",
"5. c #896F78",
"6. c #8A7279",
"7. c #817379",
"8. c #907573",
"9. c #6C6E82",
"0. c #656982",
"q. c #716F81",
"w. c #6C7285",
"e. c #727484",
"r. c #73758A",
"t. c #74798B",
"y. c #7C7D8D",
"u. c #7A7389",
"i. c #7B7C92",
"p. c #727890",
"a. c #907E89",
"s. c #817F97",
"d. c #877A8D",
"f. c #7E818E",
"g. c #7C8294",
"h. c #7F849B",
"j. c #80808E",
"k. c #828395",
"l. c #8A8393",
"z. c #84859A",
"x. c #85899D",
"c. c #8C8E9E",
"v. c #868B96",
"b. c #968690",
"n. c #94969D",
"m. c #A08C95",
"M. c #868AA1",
"N. c #8A8EA4",
"B. c #8C8EAA",
"V. c #908FA4",
"C. c #8D92A4",
"Z. c #8D93AC",
"A. c #9395AB",
"S. c #9B9CAB",
"D. c #979AAA",
"F. c #949BB3",
"G. c #9B9FB7",
"H. c #A899A7",
"J. c #9EA1AB",
"K. c #9EA3B5",
"L. c #9DA2BC",
"P. c #A3A3AA",
"I. c #A2A2B7",
"U. c #ABADB4",
"Y. c #A1A5BC",
"T. c #A5AABD",
"R. c #ACAEBC",
"E. c #ABA2B2",
"W. c #B6AFBF",
"Q. c #ADB0B9",
"!. c #B8BDBF",
"~. c #A6ACC4",
"^. c #A9ADC4",
"/. c #ACADC9",
"(. c #AEB2C6",
"). c #ADB5CA",
"_. c #B3B4C1",
"`. c #BCBCC3",
"'. c #B3B7CD",
"]. c #B6B9CE",
"[. c #B8BBC8",
"{. c #BABED5",
"}. c #B8BBD4",
"|. c #C3BFC5",
" X c #BCC0C9",
".X c #BBC1D4",
"XX c #BDC2DA",
"oX c #C4C9DF",
"OX c #CACDDD",
"+X c #C4C5DB",
"@X c #CED1DD",
"#X c #C6C7CC",
"$X c #C2C5E1",
"%X c #C5CAE2",
"&X c #CCCEE2",
"*X c #C7CDE8",
"=X c #CED2E6",
"-X c #D6D6E3",
";X c #D3D6EB",
":X c #D6D9EB",
">X c #DADCE7",
",X c #D9DDF2",
"<X c #DEE2EC",
"1X c #E3E7F5",
/* pixels */
"                                                                                                    ",
"                                                                                                    ",
"                                            n.J.n.y.                                                ",
"                                      v.  `.<X@X].A.q.  P.                                          ",
"                                  U.@X{.t.R..X^.Z.i.;.`.>X(.e.                                      ",
"                                 X1X;X~.t.y.v.r.9.9.-.).*X{.A.;.                                    ",
"                            k.c..XoX^.z.%.| 6 4 4 6 | l.^.'.N.9.;.                                  ",
"                          `.OXL.C.Y.y.} m # X . . X # D #.l.r.w.M.i.*.                              ",
"                        #X<XXXZ.9.+.J C L 9 $ . . = w y B K +.I.XXA.t.&.                            ",
"                      C.OX'.F.i.o.C g g h i ; . X q l e g l A H.%X'.c.9.                            ",
"                    S.Y.M.z.u.} Z E j h h e ; X X 8 l a g d f ~ b._.x.w.-.                          ",
"                    -X%XC.:.[ N U ! z U z i 1 X o q l f g h f L ~ 7.c.K.h.;.                        ",
"                  U.:X.XC.@.V g R 3.z U z r 1 + o q l f g z y L g  .|.%XF.r.&.                      ",
"                  D.{.Y.;.J I Q ! 1.z U z r 1 O @ q l f U c f L h B ,.].~.i.*.                      ",
"                P.S.M.i.[ B ! / ! 1.z U z r 1 O @ q l f U v g L g r V b.^.i.r.                      ",
"                >X{.r.+.A L / / Q <.z U z r 1 O @ q l f U v g g g r L  .d.K.Y.i.                    ",
"              U.,X{.i.{ u z <./ Q <.z U z r 1 O @ q x s U v h z h y z B m.:X$XN.*.                  ",
"              R.=X~.:.F P z 3./ Q 1.z U z r 1 O @ q x g U v h U h e z L O.+X+XN.*.                  ",
"              S.].V.o.B c U 2./ Q 1.z U z r 1 O @ 8 d h R b z U h e l h F E.(.v.*.                  ",
"              c.v.e.[ g z U 2./ ! 1.z U z e 1 @ @ 8 d h U v z U d e l h B a.x.9.&.                  ",
"            P.-XS.y.J z z Q 2./ E / z U z r 1 @ @ 9 x h Y W z U k e l g y X.S.N.g.                  ",
"            _.:X'.C.K z E Q 2./ E / z U z r 1 @ @ q x h Q / z R z a I l y 8.<XXXx.-.                ",
"            I.$XF.r.S c ! Q 2./ E ! z U z e 1 @ @ 9 x h Q <.c R c a z l y O.OX%Xx.-.                ",
"            x.G.h.@.T v / Q 2./ E ! c z l e 1 @ @ 9 k h Q 1.c R c s z h f V W.}.i.&.                ",
"            -.r.w.#.T v / Q 2./ E ! c l i e 2 @ @ 9 U L T 1.R R E f U h f V H.A.0.                  ",
"            J.A.r._ R W / Q 2./ E ! z w K u 2 @ @ 9 I K Z 1.c R E s U l f t } k.t.*.                ",
"            OX&XA.' R ^ / Q 2./ Q ! z n { M 2 @ @ q N { A 2.R R E g U l s t 4.&XL.e.                ",
"            OX].M.' Q <./ Q 2./ E ! z n H n 1 @ @ q N H S 2.R U v g z h f t 5.=XL.t.                ",
"            D.A.i.` Q 1./ Q 2./ Q ! z n 5 n 1 @ $ q N 5 S 1.R R E g z h y t >.{.L.9.                ",
"            i.r.-.) Q 1./ Q 2./ R E z B n u : @ # q L m T 1.U U E h z h f t #.A.p.-.                ",
"          U.OXD.g.' Q 1./ Q 2./ R E z I g i : @ # q U I Y / U U E h z h y t $.R.G.h.                ",
"          Q.&X(.x.] Q 1./ Q 2./ R E z z h e 1 @ # q R U Y / U U E z z h y t 6.:X.Xx.*.              ",
"          f.T.C.t.) Q 1./ Q 2./ R W c U j r 1 % & 0 R c E ^ U U E z z h a t >.+XT.t.&.              ",
"            r.r.;.) Q 1./ Q 2./ R W c U R e 2 & & 0 z c R W z R E z z h a t o.D.g.;.                ",
"            x.w.-.G Q 1./ Q 2./ U W c U h r 2 & & 0 z z R W z U E z z h f t  .j.r.9.                ",
"          !.=XT.g.) Q 1./ Q 2.E U W c U h r 2 & & 0 U c U W z U E z z h r t 4.-X{.z.=.              ",
"          _.&XT.y.) Q 1./ Q 1.c U W z h h r 2 % & 0 U R U v z U E z U h a t 6.:X{.M.:.              ",
"          J.(.C.e.) Q 1.( Q / z U W h g d r 2 & & q z z U b z U E z U h f t >.{.Y.z.*.              ",
"          e.i.t.9.) / 1./ E ^ z U W s L h e 2 & & 0 z s U b z U E z U h r t ..C.g.;.                ",
"          v.K.w.-.G / 1./ Q E z P c a L z e 1 & & 0 h f h c h R E h U h f t [ y.t.9.                ",
"          _.&X^.x.] ( / Y l E g g z y g h r 3 % & q L f g h s Y z a P h g t 6.<XoXZ.=.              ",
"          S./.B.s.` Q c s s z s g k y i u 7 - % & < 8 t g h a z h f z s f t 4.OX).x.=.              ",
"            e.9.*.D V y t t i t M i 7 ; - = = * * , > > 2 8 w u i p u u t 0 ..c.v.e.                ",
"                                                                                                    ",
"                                                                                                    ",
"                                                                                                    ",
"                                                                                                    ",
"                                                                                                    ",
"                                                                                                    ",
"                                                                                                    "
};
