/* XPM */
static char *_b8a399b77b44adb89b32715625a4887zwayrmsuSugcS2kF[] = {
/* columns rows colors chars-per-pixel */
"50 50 204 2 ",
"   c None",
".  c #040303",
"X  c #090506",
"o  c #0A0807",
"O  c #0D0609",
"+  c #0D0B0A",
"@  c #140B06",
"#  c #14070A",
"$  c #130B0A",
"%  c #1B0C0B",
"&  c #170806",
"*  c #17120B",
"=  c #1A120D",
"-  c #191207",
";  c #230D07",
":  c #230D0C",
">  c #280D0B",
",  c #21110B",
"<  c #36130B",
"1  c #2B1A1C",
"2  c #331A11",
"3  c #3D1B15",
"4  c #3D1D1D",
"5  c #221A21",
"6  c #3B1C25",
"7  c #2A222C",
"8  c #252226",
"9  c #3C272F",
"0  c #332936",
"q  c #3B323C",
"w  c #411715",
"e  c #4C231D",
"r  c #4B221A",
"t  c #522415",
"y  c #5B2616",
"u  c #5C2916",
"i  c #53261D",
"p  c #5C261A",
"a  c #55291C",
"s  c #5B291A",
"d  c #612716",
"f  c #632A16",
"g  c #612719",
"h  c #642B1A",
"j  c #6A2C1B",
"k  c #682B17",
"l  c #6C331D",
"z  c #64301A",
"x  c #71321B",
"c  c #452322",
"v  c #4C2525",
"b  c #4D2A2B",
"n  c #45252C",
"m  c #572620",
"M  c #542A22",
"N  c #5C2E22",
"B  c #5B2724",
"V  c #5B3121",
"C  c #55332C",
"Z  c #5D342B",
"A  c #4C2B31",
"S  c #532D34",
"D  c #562F39",
"F  c #5A2F30",
"G  c #4D343D",
"H  c #4B383C",
"J  c #543134",
"K  c #59343A",
"L  c #573738",
"P  c #692F20",
"I  c #633025",
"U  c #6C3323",
"Y  c #68322A",
"T  c #723523",
"R  c #723925",
"E  c #7A3927",
"W  c #773B28",
"Q  c #7A3C2A",
"!  c #653835",
"~  c #4E3341",
"^  c #4E3C48",
"/  c #533A46",
"(  c #593D4B",
")  c #543845",
"_  c #524956",
"`  c #56515D",
"'  c #634843",
"]  c #624D5B",
"[  c #60545D",
"{  c #595B6C",
"}  c #595A68",
"|  c #655761",
" . c #695E6C",
".. c #765E66",
"X. c #5F606F",
"o. c #5F6371",
"O. c #5E6378",
"+. c #7B6269",
"@. c #636576",
"#. c #6B6472",
"$. c #616379",
"%. c #656A7C",
"&. c #6A6A7D",
"*. c #666778",
"=. c #716C79",
"-. c #826C6A",
";. c #866C76",
":. c #947A7F",
">. c #676C82",
",. c #6B6E83",
"<. c #686A85",
"1. c #706E83",
"2. c #6D7182",
"3. c #6D738A",
"4. c #727485",
"5. c #74768A",
"6. c #7B7B8D",
"7. c #797888",
"8. c #7B7D93",
"9. c #847D8D",
"0. c #867F93",
"q. c #7D828D",
"w. c #7C8294",
"e. c #7D829A",
"r. c #86838F",
"t. c #97818C",
"y. c #828394",
"u. c #82859C",
"i. c #8A879F",
"p. c #86899D",
"a. c #888A9C",
"s. c #8B8F94",
"d. c #988B99",
"f. c #8E9198",
"g. c #92969D",
"h. c #878CA3",
"j. c #898CA3",
"k. c #868AA5",
"l. c #8D91A5",
"z. c #8E93AC",
"x. c #9394A3",
"c. c #9396AB",
"v. c #9499AC",
"b. c #989AAE",
"n. c #989AA3",
"m. c #959BB1",
"M. c #9A9CB4",
"N. c #9799B6",
"B. c #9EA2B5",
"V. c #9EA2BB",
"C. c #A2A4AA",
"Z. c #A3A4B3",
"A. c #A2A3B9",
"S. c #A4A8BC",
"D. c #AEA9BB",
"F. c #B0A8BD",
"G. c #B7B4BB",
"H. c #A6AAC2",
"J. c #AAADC2",
"K. c #AAAFCC",
"L. c #AEB2C5",
"P. c #AEB3CB",
"I. c #A7B1CC",
"U. c #B5BAC3",
"Y. c #B6B9CD",
"T. c #BABBCA",
"R. c #B5B7C7",
"E. c #B4BDD3",
"W. c #BBBED3",
"Q. c #BBBFDB",
"!. c #B1B7D2",
"~. c #C0B7C1",
"^. c #C8BDCC",
"/. c #BCC2D5",
"(. c #BCC2DA",
"). c #C3C3CC",
"_. c #C9C5CB",
"`. c #C4C8CB",
"'. c #C0C4D4",
"]. c #CBC3D8",
"[. c #C7CADA",
"{. c #CCCFDF",
"}. c #C1C6D8",
"|. c #D0D3DE",
" X c #D9D7DC",
".X c #C5C7E0",
"XX c #C6CAE2",
"oX c #CBCDE3",
"OX c #CDCCEA",
"+X c #D3CBE2",
"@X c #CED3EA",
"#X c #CFD8EE",
"$X c #CDD2E0",
"%X c #D3D4E6",
"&X c #D6D8E7",
"*X c #DCDCE6",
"=X c #D1D5EB",
"-X c #D4DAED",
";X c #DDDDEA",
":X c #DADDF1",
">X c #D7D9F2",
",X c #E0DCE8",
"<X c #E1E4EF",
"1X c #E4E7F3",
/* pixels */
"                                                                                                    ",
"                                                                                                    ",
"                                              C.x.y.                                                ",
"                                      x.  C.*X&XQ.M.7.} n.                                          ",
"                                  C.|.oX8.b.'.P.N.e.&.Z.1X}.w.                                      ",
"                                ).1X-XP.w.5.a.6.1.&.&.V.@X/.S.5.                                    ",
"                              a.W.XXP.u.&._ q 7 7 0 _ 9.Z.T.m.3.@.o.                                ",
"                          ).{.J.j.H.y.` 8 $ X . . . # 5 _ y.5.>.k.e.,.                              ",
"                        `.<X.XN.,. .G # . . . . . . X o # n ] 0.OXV.u.&.                            ",
"                        $XY.N.u.| v I 3 O . . . . . X O 2 a e :.OXE.b.5.{                           ",
"                      S.p.k.w.| M g x i % . . . . X X & N k p ! ;.T.M.4.*.}                         ",
"                    ;XoXx.%.` Z h u l a % . . . X o X @ N h s U m +.5.M.p.2.                        ",
"                  R.:X.Xm.=.A Y h u l p % X X . + + + # N h s U g F G.;XS.y.*.                      ",
"                  B.[.I.8.L i U h u l a : X . o + + + # N k p l k Y ' ~.Y.a.&.                      ",
"                s.v.j.u.| a d T z s l a % X + + + + + # N h p l d U s +.Y.h.>.%.                    ",
"                *XW.3.#.C U d R h p l a : + + + + + + # N k p U s U h v 7.w.H.u.                    ",
"              U.>X(.e.] t l j R j g l p : + + + + + + # N k p W s Y h t -.&X#XM.5.                  ",
"              T.=XK.5.G p l j R j g l p : + + + + + + # N k p Q g Y g p ! ^.@XB.5.                  ",
"              A.Q.z.#.v p U P R P g l p : + + + + + + # N k p Q j U h u Y t./.v.2.                  ",
"              u.u.5.[ m d W U R j g l p : + + + + $ $ # N k p Q l U h u U ..b.3.$.                  ",
"            n.[.l.2.H s d W U R P g l p : + + + + $ $ # N k p Q j U g s U b r.w.8.&.                ",
"            ).-XE.c.( p g W l R P h l p : + + + + $ $ # N k p Q j U h s U C  XoXm.5.                ",
"            F.XXV.6.K d p Q l R j g l p : + + + $ $ $ # N k p Q j U k s U Z _.>XN.5.                ",
"            x.S.j. .Z k d Q l R j g U p : + $ $ + $ + % N k p Q j U h g U N d.oXm.&.                ",
"            o.6.5. .I j h Q l R h p U p : $ $ $ + $ $ % N k p Q j R j g l y t.L.6.X.                ",
"            f.q.>.^ U j h Q l U h p V a > $ $ $ $ $ $ % V s a Q j R j g l u G 4.5.*.                ",
"            _.|.m./ U l g Q l U h y M M > $ $ $ $ $ * = M a e Q l R j g l u J ).E.y.                ",
"            %X/.j.( U j h Q l U f s M M > $ $ $ $ $ * = N t M Q U W l p l s J *X(.p.                ",
"            B.m.e.~ U j g Q l U h d a i > $ $ $ $ * * = V t a Q U W l g l s D ].!.y.o.              ",
"            4.8.<.~ U h g Q l U h d I p ; $ + $ * = * , N g p Q U R l g l s S F.l.4.{               ",
"          g.'.8.,.~ U h g Q l U h g U u ; $ + $ * = = = N k p Q l R j g l u b d.w.8.2.              ",
"          T.=XY.j.( U h g Q l U h g U p ; $ $ $ * = = = N k s Q l R h g U u K *X@XM.5.              ",
"          a.Y.M.e./ U h g W h U h g l p ; $ # $ = = = , N k p E l U h g l u D +X/.c.&.              ",
"          *.u.8.<.~ U k p Q k U h g l p > @ # = = = = , N h p E l U h g l u S F.v.5.@.              ",
"            ,.O.O.~ U k g W d U h g l p : @ $ = = = * , N k y E j U h g l s n =.%.$.{               ",
"          U.{.A.8.G U h g R u U h g l p : $ $ = = = * , N k s E k U h g l s J _./.l.4.              ",
"          /.=XJ.8.G U k g T d Y h g U p : # % = = = * , V k s T h U k p l s K ,X@XM.5.              ",
"          L.W.c.5.G U h s U d Y h d U p : $ $ = = = = , N h p T g U j g l s D ].Q.c.5.              ",
"          q.h.8.,.G U k p U d U h d U p > # * = = = * , N h p T g Y h g l u A D.m.8.*.              ",
"            y.%.O.G U j d U u U k d U a > $ = = = = = = N h s U d U h g l u c #.%.$.{               ",
"          G.%XA.w./ U h u U d U h p N 3 % $ * * = = = * 2 i a U s U h d l u J _.W.N.5.              ",
"          J.Q.M.u.( U f u l d I i 3 > & @ @ - * * * * * * , w m s U f p l u J *XXXA.5.              ",
"          6.h.8.2.G U k u U p 3 ; @ $ $ @ % * * * * * * * * % ; < B h p j s S R.H.j.,.              ",
"                    v e c v 4 1                           1 1     6 c c r c 9                       ",
"                                                                                                    ",
"                                                                                                    ",
"                                                                                                    ",
"                                                                                                    ",
"                                                                                                    ",
"                                                                                                    "
};
