/* XPM */
static char *_551edec7a1b4dceb8120b938012e9caSzOIjKaEjUO1gzbN[] = {
/* columns rows colors chars-per-pixel */
"50 50 188 2 ",
"   c None",
".  c #040303",
"X  c #090605",
"o  c #0A0906",
"O  c #0C0709",
"+  c #0D0B09",
"@  c #160606",
"#  c #190706",
"$  c #130A07",
"%  c #130608",
"&  c #120B0A",
"*  c #1A0C0B",
"=  c #1E0806",
"-  c #17110A",
";  c #1B120D",
":  c #1F0E10",
">  c #150D12",
",  c #1E181E",
"<  c #240E0C",
"1  c #2E130D",
"2  c #231517",
"3  c #26131B",
"4  c #2B151A",
"5  c #351514",
"6  c #391716",
"7  c #351A14",
"8  c #3D1A15",
"9  c #361A19",
"0  c #3B1B1A",
"q  c #271E28",
"w  c #281E29",
"e  c #241C22",
"r  c #2A222B",
"t  c #352C2F",
"y  c #332B35",
"u  c #3A323B",
"i  c #431D1B",
"p  c #411D17",
"a  c #472016",
"s  c #4D221C",
"d  c #53231A",
"f  c #59271C",
"g  c #54291D",
"h  c #5C2A1B",
"j  c #612B16",
"k  c #642C1C",
"l  c #692D1E",
"z  c #69271E",
"x  c #65311D",
"c  c #69321F",
"v  c #401F22",
"b  c #482623",
"n  c #562A21",
"m  c #5C2B21",
"M  c #522D2C",
"N  c #592F2F",
"B  c #572724",
"V  c #5C332C",
"C  c #4F2C38",
"Z  c #552F34",
"A  c #4D3136",
"S  c #563233",
"D  c #5A3434",
"F  c #5D3738",
"G  c #652D21",
"H  c #692D23",
"J  c #643124",
"K  c #6A3322",
"L  c #663329",
"P  c #633C3A",
"I  c #3D3441",
"U  c #443E47",
"Y  c #533B44",
"T  c #5C3E42",
"R  c #5F464F",
"E  c #5F4347",
"W  c #494253",
"Q  c #574E5D",
"!  c #5E515C",
"~  c #6E4D51",
"^  c #64555E",
"/  c #6F535B",
"(  c #7B5E5C",
")  c #585361",
"_  c #655A67",
"`  c #5E6274",
"'  c #67626D",
"]  c #7C656B",
"[  c #75666E",
"{  c #636374",
"}  c #656977",
"|  c #656579",
" . c #65697A",
".. c #6A6C7C",
"X. c #6B6777",
"o. c #756F7C",
"O. c #6E717E",
"+. c #82737D",
"@. c #857177",
"#. c #676C81",
"$. c #6D6E82",
"%. c #706F81",
"&. c #6D7183",
"*. c #6F748A",
"=. c #727386",
"-. c #73748B",
";. c #78778C",
":. c #757A8D",
">. c #7A7D8F",
",. c #7A7C91",
"<. c #797A96",
"1. c #8D7B84",
"2. c #827E94",
"3. c #7C8296",
"4. c #7D8299",
"5. c #8E8189",
"6. c #818394",
"7. c #83869A",
"8. c #858A9D",
"9. c #8A889B",
"0. c #998A94",
"q. c #A08F9E",
"w. c #868CA2",
"e. c #8D8FA4",
"r. c #908FA1",
"t. c #998FA2",
"y. c #8E92A4",
"u. c #8F94AB",
"i. c #9293A7",
"p. c #9295AA",
"a. c #9599AB",
"s. c #999CAD",
"d. c #9994A8",
"f. c #969CB4",
"g. c #9A9EB4",
"h. c #A594A4",
"j. c #A79AA5",
"k. c #A79FB0",
"l. c #9FA0A6",
"z. c #9CA2B3",
"x. c #9DA2B9",
"c. c #A4A7AE",
"v. c #A9AAB2",
"b. c #A2A6BB",
"n. c #A5AABD",
"m. c #AAADBA",
"M. c #A1A0B6",
"N. c #B4A3B3",
"B. c #B7A5B8",
"V. c #ADB1BC",
"C. c #B3B5BA",
"Z. c #C1B1BA",
"A. c #A5A9C3",
"S. c #ABADC4",
"D. c #ABACCA",
"F. c #A3A7C0",
"G. c #ADB2C9",
"H. c #AEB8C6",
"J. c #B2B4C3",
"K. c #BABBC6",
"L. c #B3B5CC",
"P. c #B7BACC",
"I. c #BBBDCC",
"U. c #B8B6C6",
"Y. c #B6BCD2",
"T. c #BABDD4",
"R. c #C6BBC1",
"E. c #BCC0C6",
"W. c #BDC1D3",
"Q. c #BDC2D9",
"!. c #C0C1D5",
"~. c #C2C4DB",
"^. c #CCCDDA",
"/. c #C4C9DD",
"(. c #D2CEDC",
"). c #D2D5DD",
"_. c #C5C9E4",
"`. c #CACDE4",
"'. c #C6C5E0",
"]. c #CED2E2",
"[. c #CFD4EC",
"{. c #D1D4E4",
"}. c #D9DCE6",
"|. c #D4D6E9",
" X c #D6D9EC",
".X c #DFDFEB",
"XX c #D6DAF1",
"oX c #DDE3F1",
/* pixels */
"                                                                                                    ",
"                                                                                                    ",
"                                                                                                    ",
"                                                                                                    ",
"                                                                                                    ",
"                                              C.m.d.                                                ",
"                                        i.  K.}.`.D.7.} c.V.                                        ",
"                                    E.].D.-.J.P.b.w.-. .). Xg.=.                                    ",
"                                  ^.oX_.f.=.>.,... . .$.!./.L.8.|                                   ",
"                              s.i.W.Q.x.=.) U r q w u Q 9.S.n.3. .&.                                ",
"                            ^./.p.w.i.{ y > X . . . X & e ) ;...7.u.:.{                             ",
"                          ). XG.8.{ W , X . . . . . . . X & u ' R.Q.p.-.{                           ",
"                        y.W.F.w.%.u + . . . . . . X X X X + & t k.~.G.<. .                          ",
"                      c.J.4.3.$.I + . . . . . . X X X O X X o + y t.S.,.=.|                         ",
"                    l..X~.w. .Y : . . . . . X X X X X X X X X O * A +.z.M.>. .                      ",
"                    I.{.T.9.^ N 0 O . . . X X X X o + + O O + o 1 n ( (.T.e.&.                      ",
"                    s.H.g.X.V G s % . . . X X X X + + + + + + & 9 x J @.I.x.$.{                     ",
"                  C.s.3.;.Y J l d @ . . X X X O + + + + + + & $ 9 k k D j.p.:.,.                    ",
"                v.}.L.-.^ b K l d @ X X X X O + + + + + + & & & 9 G k f / r.Y.f.=.                  ",
"                I. XL.;.T m K k d @ X X O O + + + + + + + & + & 6 x k h P R.XXG.>.                  ",
"                L._.f.{ M m K k d @ X X O O + + O + + + & & + & 6 x k j m ] `.G.>.                  ",
"                p.S.3.! d G K k d @ X X O O + + + + & & & & + & 6 x G j h E U.a.=.                  ",
"                d.=. .Y f k K k d @ X X O + + + + + & & & & & $ 8 x k j j F 5... . .                ",
"              U.|.D.>.C h k x k d @ X X + + + + + + & & & & & * 8 x k j k V 1.J.y.:.                ",
"              I.[.G.7.Z h k c k d # X X + + + + & + & & & & & * 8 x l j k L R.oXS.,.                ",
"              b.Y.p._ n j k c k d # X + + + + & & & & & & & - * 8 x k h k H ] XXD.:.                ",
"              6.y.,._ d j k c k d # X + + & & & & & & & * ; ; * 8 x c h z H ~ '.g...                ",
"              O.} ..R f k k x G d # X + + & & & & & & * ; ; ; ; 8 J c h k L P d.$.`                 ",
"              U.P.2.S k h k c f s $ X + + + & & & & * ; ; ; ; ; 8 m k k k K g o.g.,.                ",
"              {./.p.F k h k x a i * + o + & + & & & * ; ; ; ; ; 0 g m k k c f Z.`.p.&.              ",
"              L.n.3.S k h k K s i * X o + + & & & * - ; ; ; ; ; 8 g m k j c f N.Q.u...              ",
"              6.7.&.S k h k K m s * X o + + & & & - ; ; ; ; ; ; 8 m k h j c f q.S.6.}               ",
"              a.&.| S k h k K G d * O o + & & + & ; ; ; ; ; ; ; 8 G k j j K f +.,.&.$.              ",
"            J.].b.6.D k h k K k d * O o + + & & * ; ; ; ; ; ; ; 8 G l j j K f j.Q.x.,.              ",
"            s.Q.b.6.F k h k K k d * O o & & & & * ; ; ; ; ; ; ; 8 k l j j K m B.`.A.,.              ",
"            ;.i.7.$.D k j G K k d * O & & & & $ ; ; ; ; ; ; ; ; 8 k H k j K m h.G.w.$.              ",
"              ..#. .D k h k K k d * O & & + & * ; ; ; ; ; ; ; ; 8 k l j j K f [ :.#.{               ",
"            v.m.7.$.M k h k K G d * + & & + & * ; ; ; ; ; ; ; ; 8 k l j j K f 5.s.7.=.              ",
"            U.|.S.,.D k h k K G d * O & & + * ; ; ; ; ; ; ; ; ; 8 k l j j K f Z.XXS.,.              ",
"            n.Q.f.-.D k k k K G d * + & & + & ; ; ; ; ; ; ; ; ; 8 k l j j K f N._.n.,.              ",
"            8.p.4.$.D k h k K k d * + & & & * ; ; ; ; ; ; ; ; ; 8 G H k j K f 0.A.8.=.              ",
"              >.#.| S k h k K l d = o + & $ * ; ; ; ; ; ; ; ; ; 8 k l k j K g _ *. .`               ",
"            m.W.y.-.D k j k K m i # % & & $ - ; ; ; ; ; ; ; ; ; 7 f G h j c f 0.n.p.-.              ",
"            n.Q.x.6.F k j h n 5 * o + & & & * ; ; - ; ; ; ; - - ; 1 p n k K m Z.|.G.3.              ",
"            8.u.4.=.S k d p < * O o + & & $ * ; ; ; ; ; - - - - ; * < 5 d G B h.L.a.:.              ",
"                      b 9 4 3 3 2 2 3 3 3 4 4 4 4 4 4 4 4 4 4 4 4 4 4 4 0 i v   O.X.                ",
"                                                                                                    ",
"                                                                                                    ",
"                                                                                                    ",
"                                                                                                    "
};
