/* XPM */
static char *a18ac9e0765f40c3e802ed4d0d2a29032UsKqWnIu6LugiSM[] = {
/* columns rows colors chars-per-pixel */
"50 50 185 2 ",
"   c None",
".  c #040303",
"X  c #090605",
"o  c #0A0906",
"O  c #0C0709",
"+  c #0C0B09",
"@  c #120706",
"#  c #190705",
"$  c #140B07",
"%  c #1A0906",
"&  c #120708",
"*  c #180708",
"=  c #120B0A",
"-  c #190B0A",
";  c #16120C",
":  c #1A120D",
">  c #160E11",
",  c #180F12",
"<  c #1B1210",
"1  c #1B191C",
"2  c #2C130F",
"3  c #30120D",
"4  c #210F15",
"5  c #241416",
"6  c #2A1413",
"7  c #261418",
"8  c #2C131A",
"9  c #351416",
"0  c #3A1614",
"q  c #361813",
"w  c #3A1914",
"e  c #371419",
"r  c #391718",
"t  c #3E1C1B",
"y  c #231A21",
"u  c #2A1F2B",
"i  c #292127",
"p  c #302326",
"a  c #36242A",
"s  c #3E2F39",
"d  c #3A323C",
"f  c #4E1F1B",
"g  c #551F1B",
"h  c #4D231C",
"j  c #562516",
"k  c #5A2317",
"l  c #55231B",
"z  c #59231A",
"x  c #452123",
"c  c #4E2323",
"v  c #4E272C",
"b  c #49292C",
"n  c #532422",
"m  c #55282A",
"M  c #4C2C34",
"N  c #4B333A",
"B  c #543435",
"V  c #59373A",
"C  c #443E48",
"Z  c #493849",
"A  c #523A44",
"S  c #5D3A40",
"D  c #4B434C",
"F  c #564F55",
"G  c #5F4F5F",
"H  c #514A59",
"J  c #624246",
"K  c #69474B",
"L  c #66494E",
"P  c #6C4B4D",
"I  c #644449",
"U  c #70514F",
"Y  c #6B4C52",
"T  c #744D51",
"R  c #5B5261",
"E  c #595765",
"W  c #625564",
"Q  c #6E5460",
"!  c #645B66",
"~  c #665A69",
"^  c #6B5E6D",
"/  c #775D6C",
"(  c #705E72",
")  c #5B6071",
"_  c #6B606C",
"`  c #636474",
"'  c #6B6071",
"]  c #676877",
"[  c #64677A",
"{  c #656A7C",
"}  c #6B6C7E",
"|  c #716272",
" . c #716976",
".. c #736F7E",
"X. c #7A697D",
"o. c #826B6C",
"O. c #836D79",
"+. c #80787F",
"@. c #6C6D82",
"#. c #666A82",
"$. c #6D7183",
"%. c #737486",
"&. c #787381",
"*. c #727489",
"=. c #757A8B",
"-. c #797B8C",
";. c #767C91",
":. c #7A7D93",
">. c #7D818F",
",. c #7D8294",
"<. c #7D8598",
"1. c #82868F",
"2. c #838494",
"3. c #83869A",
"4. c #88879A",
"5. c #848A9E",
"6. c #898A9F",
"7. c #928D9D",
"8. c #93939D",
"9. c #8B86A0",
"0. c #858CA3",
"q. c #898EA3",
"w. c #8D8FA8",
"e. c #8C92A5",
"r. c #8D93AA",
"t. c #9294A3",
"y. c #9E9DA7",
"u. c #9195AB",
"i. c #959AAC",
"p. c #9A9DAB",
"a. c #969AB1",
"s. c #9A9CB4",
"d. c #9295B1",
"f. c #A098AD",
"g. c #AB98AE",
"h. c #A294A3",
"j. c #9EA1B4",
"k. c #9DA2B9",
"l. c #A1A2B4",
"z. c #ADAEB6",
"x. c #A2A5BC",
"c. c #ADA7BD",
"v. c #A5A9BB",
"b. c #A9ACBB",
"n. c #ADB2B9",
"m. c #B1B4BA",
"M. c #B9B2BA",
"N. c #A6AAC2",
"B. c #AAAEC3",
"V. c #A8AFC9",
"C. c #ADB2C4",
"Z. c #ADB1C9",
"A. c #B1B2C3",
"S. c #B2B5CD",
"D. c #BEB7C9",
"F. c #B5B8CE",
"G. c #B9BACC",
"H. c #BAB7C5",
"J. c #B5BAD3",
"K. c #BABDD3",
"L. c #BDBFD9",
"P. c #B3B5D2",
"I. c #C1BACE",
"U. c #BCC0D8",
"Y. c #C4C5CD",
"T. c #C2C3D1",
"R. c #C2C5DC",
"E. c #C6C9DD",
"W. c #C9CBDB",
"Q. c #CACBD4",
"!. c #D3D5DE",
"~. c #C6CAE1",
"^. c #C9CCE4",
"/. c #D0CFE6",
"(. c #CED1E3",
"). c #CDD2EB",
"_. c #D3D4E5",
"`. c #D4D8E7",
"'. c #D9D8E5",
"]. c #D4D7EB",
"[. c #D6DAEE",
"{. c #D3D9EB",
"}. c #DADBEB",
"|. c #DDE2EC",
" X c #E8E5ED",
/* pixels */
"                                                                                                    ",
"                                                                                                    ",
"                                                                                                    ",
"                                                                                                    ",
"                                                y.t.2.                                              ",
"                                        l.  8.!._.L.s.%.  m.                                        ",
"                                    z.T.(.5.3.K.C.i.,.{ p.|.K.3.                                    ",
"                                  b.|.{.S.<.$.,.*.] ` ` i.~.L.x.%.                                  ",
"                              e.t.v.~.P.5.` D d u u a Z X.f.A.u.$.[ @.                              ",
"                            m.W.F.5.s.9.H i + X . . X O y D &.%.@.e.3.{                             ",
"                          n.|.E.s.=.R d O . . . . . . X X + y D 7.^.N.,.[                           ",
"                          C.F.s.2.E 1 . . . . . . . X X X o + > ! I.K.u.$.                          ",
"                        b.a.:.;.E y . . . . . . X X X o o o o + > W A.e.*.@.`                       ",
"                      Q.{.V.*.E y X . . . . . . X o o o o o + + + , F 2.C.q.%.`                     ",
"                      `.~.N.%.d X . . . . . X X o o + + + + + + O = p M.].x.,.[                     ",
"                    1.C.B.4.C + . . . . . . X o + + + + + + + + = = - s c.F.5.[                     ",
"                    H.<.,.^ a X . . . . X X X + + + + + + o + = = = = 8 / v.:.;.$.                  ",
"                  Y._.q.{ A x = . . . X o o + + + + + + + + + = = = = e m +.v.S.3.                  ",
"                  _.~.r._ v c & . . . X o o + + + + + + + = = = = = = q l o.}.).u.$.                ",
"                  ~.P.3.A l h & . . X X o o + + + + + + + = = = = = = 0 l B D.~.u.$.                ",
"                  v.a...b z h & . X X X o + + + + + & = = = = = = - - 0 l n h.B.<.[                 ",
"                t.,.} ! c z h & . X X o + + + + + + = = = = = = $ - : 0 k g Q >.{ {                 ",
"                (.R.i.~ l k h $ X X X o + + + + + + = = = $ $ - - : : 0 z z V z.j.6.$.              ",
"                ].R.s.( l z h $ X X X o + + + + + = = = = = $ - : : : w z k T  X~.u.%.              ",
"                U.B.:.A l z h $ X X X + + + O = = = = = = - - : : : : 0 z k B H.^.w.}               ",
"                6.5.} M l z h * X X o + + + + = = = = = = - : : : : : 0 k k c g.J.3.`               ",
"                } { ' v l k l # X X o + + + = = = = = = ; : : : : : : 0 k j n O.2.[ )               ",
"                W.j.W n z z l % X o o + + + = = = = = ; ; : : : : : : r z j l V p.e.$.              ",
"              A.{.C.X.n j l t $ o X o + + + = = = = = ; : : : : : : < 9 f l z U }.Z.:.              ",
"              l.K.i.^ n j l t - X X o + + = = = = = - : : : : : : : < 9 f l z K W.B.:.              ",
"              =.5.,.W n j z h - X X o + + = = = = - : : : : : : : : : r l l z J A.a.%.              ",
"              p.,.} W n z z h * X o o + + = = = = : : : : : : : : : : 0 l l z S 3.*.*.              ",
"              !.K.i.| n z z h # X o + + + = = = = : : : : : : : : : : w k l z K T.S.w.@.            ",
"              G.J.u.| n z z h * X o + + + = = = - : : : : : : : : : : w l z z P /.U.w.}             ",
"              6.u.:.W n z z h * X o + + = = = = - : : : : : : : : : : 0 z l k I F.k.;.]             ",
"              } @.#.R n z z h * X o + + = = = = - : : : : : : : : : : 0 z l l B -.$.[               ",
"              A.u.;.R n z z h * X o + + = = = - : : : : : : : : : : : 0 z l z V p.u.:.}             ",
"              }.R.a.~ n z z h * + + + + = = = - : : : : : : : : : : : 0 z l z Y }.^.d.@.            ",
"              E.Z.0.W n z z h * + + + + = = = - : : : : : : : : : : : 0 z l z Y ~.K.r.@.            ",
"              p.r.;.W n z z h * + o + + = = $ ; : : : : : : : : : : : w z z z J S.s.,.}             ",
"              -.=.{ G n j z h * O O + = = = = ; : : : : : : : : : : : q z z k B %.$.[               ",
"              T.b.<.^ n z l q & X + + = = = = ; : : : : : : : : : : : 6 f l k J z.j.5.@.            ",
"              R.Z.e. .n l q @ o + + + + = = - : : ; : : : : : : : : : : 2 h z P '.R.s.@.            ",
"              t.q.=.! c w # X X + O + = = = - : : : : : : : : : : : : : - 3 l L G.N.6.@.            ",
"                      x 6 4 4 5 5 5 5 5 5 7 7 7 5 5 5 5 7 7 7 7 5 5 5 5 5 6 t N ,.-.}               ",
"                                                                                                    ",
"                                                                                                    ",
"                                                                                                    ",
"                                                                                                    ",
"                                                                                                    "
};
