/* XPM */
static char *_eacedcb22cf40f4f665b74669ec33bdvLoueKlQsQWq0URJ[] = {
/* columns rows colors chars-per-pixel */
"50 50 148 2 ",
"   c None",
".  c #19130F",
"X  c #171313",
"o  c #1B1613",
"O  c #1E1914",
"+  c #1F1C19",
"@  c #231D16",
"#  c #231E19",
"$  c #272117",
"%  c #282017",
"&  c #26211C",
"*  c #2B241B",
"=  c #2F281E",
"-  c #30271D",
";  c #32291E",
":  c #272320",
">  c #2B2621",
",  c #2E2924",
"<  c #2F2A28",
"1  c #332C23",
"2  c #392E24",
"3  c #332D29",
"4  c #382F2B",
"5  c #373026",
"6  c #3B3125",
"7  c #36312C",
"8  c #3B342B",
"9  c #3E382D",
"0  c #373430",
"q  c #3B3631",
"w  c #3D3933",
"e  c #413426",
"r  c #42362A",
"t  c #443A2C",
"y  c #4A3D2E",
"u  c #403730",
"i  c #443C33",
"p  c #493E32",
"a  c #433E39",
"s  c #4D402F",
"d  c #50412F",
"f  c #474033",
"g  c #4C4233",
"h  c #45413B",
"j  c #4B443C",
"k  c #4D483F",
"l  c #514534",
"z  c #554836",
"x  c #54493A",
"c  c #464440",
"v  c #4A4541",
"b  c #4D4A44",
"n  c #4F4E49",
"m  c #524C44",
"M  c #534E4A",
"N  c #565046",
"B  c #56524C",
"V  c #5A544D",
"C  c #575553",
"Z  c #585550",
"A  c #585652",
"S  c #5B5752",
"D  c #5B5951",
"F  c #5B5852",
"G  c #5F5852",
"H  c #5C5955",
"J  c #5C5A55",
"K  c #5D5A55",
"L  c #5E5A55",
"P  c #5D5B56",
"I  c #5E5E57",
"U  c #5D5953",
"Y  c #60574F",
"T  c #605B52",
"R  c #635C52",
"E  c #625C54",
"W  c #645E54",
"Q  c #625D54",
"!  c #625E5A",
"~  c #645F5A",
"^  c #626052",
"/  c #62605B",
"(  c #64605B",
")  c #66625D",
"_  c #64615E",
"`  c #66625E",
"'  c #64625C",
"]  c #686158",
"[  c #69645E",
"{  c #69655F",
"}  c #6B635C",
"|  c #656460",
" . c #686460",
".. c #6A6762",
"X. c #6C6560",
"o. c #6E6960",
"O. c #6C6A63",
"+. c #6F6A62",
"@. c #6C6B64",
"#. c #6E6C65",
"$. c #6F6C67",
"%. c #6D6962",
"&. c #6F6D68",
"*. c #6D6D6B",
"=. c #706A62",
"-. c #706B65",
";. c #736A62",
":. c #716E69",
">. c #736F6A",
",. c #726E69",
"<. c #7A7667",
"1. c #70716A",
"2. c #74716C",
"3. c #74726C",
"4. c #7A756C",
"5. c #7B7A6E",
"6. c #777771",
"7. c #747572",
"8. c #797670",
"9. c #7A7670",
"0. c #787770",
"q. c #7D7A74",
"w. c #7B7D77",
"e. c #7E7C74",
"r. c #7F7E7A",
"t. c #858476",
"y. c #83817C",
"u. c #85837E",
"i. c #8B867D",
"p. c #8B8A7F",
"a. c #8B8C87",
"s. c #8F8E87",
"d. c #8C8A84",
"f. c #8E8C88",
"g. c #928D88",
"h. c #928E8A",
"j. c #969285",
"k. c #919089",
"l. c #93948C",
"z. c #969690",
"x. c #939490",
"c. c #969890",
"v. c #9A9991",
"b. c #A09C96",
"n. c #A5A59E",
"m. c #AFB1AB",
"M. c #B7B8B1",
"N. c #BEBDB8",
/* pixels */
"                                            H H / 2.                                                ",
"                                    y.#.E m w b H h j [ 9.g.z.                                      ",
"                                -.=.j p g y t B H b t t 6 1 j [ q.                                  ",
"                            @.R 1 G x z l s t 7 , 9 6 r r r V u 6 o.k.                              ",
"                          #.m y g m j 6 r f 9 q v 7 i i g t M 8 r 2 g 9.w.                          ",
"                      a.] r y y r 8 B b j w , : , + # 7 h T m r r 6 r t o.d.                        ",
"                    >.V g y t r i w , > o o > 7 q 3 # o O & 3 k p e t t i v o.                      ",
"                  &.j 8 W y 6 m h o + , > 0 a `  .Z a 7 > , X + q i 6 i m r i 1.                    ",
"                D t t y j m B , & o 3 ( D h a 1 v , 3 a H ` 3 # # , m a 1 6 y i >.                  ",
"              I i t y y w H : o 7 C ` > * 1 q 1 v 3 , # # 3 | Z 3 O # q 2 6 y r i 6.                ",
"              n e y t 1 w : : 0 ! a * = 5 6 i 2 j 7 4 * * 6 * b  .q > & 4 6 y t 1 M                 ",
"            / i 6 y 6 b & # h ! , * 1 >.! r p 8 b 0 5 = E o.6 * , ..b # & 7 6 t ; q b               ",
"            1 v m p j : > w v # * - 1 V j t g 8 m i 8 1 a m e 2 $ * m c > & h 9 9 7 > B             ",
"          b * 1 9 M > # h M * * * ; 1 1 1 y g 6 m j 8 ; * r 6 6 * 1 $ Z c # # a 1 * * b             ",
"          h ; 1 6 w & > B & * - 8 ; 1 6 6 g g 6 b m 8 ; * t 6 8 i 6 * , ` 0 & 7 e 1 ; w             ",
"          1 1 2 i : 7 0 > * ; m g.i 6 b.~ g i 8 M m 9 6 } i.e j f.m - # > v , & 9 2 2 1 n           ",
"        i * 1 6 w & # a * 1 ; 1 0 1 e j 1 g i 6 b m t 2 3 g t 1 0 8 1 * * a & # q 6 1 1 j           ",
"        9 1 1 r , o & q * 1 1 6 ; e t 6 t g p 8 G V i 6 ; g y 6 1 t 2 1 * 9 : o > 9 ; 2 a           ",
"        5 9 8 k @ # 7 > w q 2 e 1 t y 8 g g j 8 S V i 6 1 g g t 8 t 6 9 8 > 0 : + a i j a 3.        ",
"        3 0 < b 7 d.m # A M 6 6 1 t y 8 g l g 9 G V i 6 1 l s t 6 t 6 B h > B p., , 7 7 ,           ",
"        # * * h B d.M 3 M J i t 4.t y T ] x g t E m i 6 V R l t <.g g B j 1 k t.j & # @ @           ",
"        * 2 ; i H l.j 3 j n 9 6 3 6 y 9 8 x p i G i 8 2 1 p l 6 1 r 9 n i * i <.i & $ * #           ",
"        ; 6 1 7 9 w.j & j c 1 6 1 t y 8 g x g i G i 8 e 1 y l t 1 t t h w > b 4.> & * * $           ",
"        * 6 2 3 @ , , # , , 1 e 6 y y 6 l z g i G k t e 1 y g t 6 y t 1 1 > 3 , O * * # *           ",
"        * 6 1 , # # , & = $ - e 6 r p 6 g z j i S x t e 1 y y 8 6 t t 1 8 3 3 : @ & * #             ",
"        * 2 1 1 > & , = 1 * ; 8 o.8 t W ;.l j t V j t 6 Y R t 9 } p t 1 i 5 4 1 # & * *   w         ",
"        * 6 1 * & & , 1 1 * * 6 k 1 t j j g g t B j 8 2 h N t 8 b r t - t 8 7 , # & * *             ",
"        * 1 - 1 > # , 5 5 1 ; 1 1 8 i 1 8 l p t m i 6 2 1 8 t 1 1 6 6 * 8 8 7 * # & * * *           ",
"        * 1 * * > # > 1 6 1 - 1 9 ! w.@.m g i r b 8 1 8 j 2.2.b 8 2 1 * 1 1 0 * # & * * *           ",
"        & 1 * , > & > 1 5 i i ; B c.M.l.d.i i 9 j 5 1 a y.m.N.d.B 1 i w 9 8 9 > # * * *             ",
"        # ; * > , & , ; 5 5 , * m j.v.v.u.i 9 8 h 1 1 h u.x.v.e.9 * 7 i 9 8 7 > # $ * * $           ",
"        # * * & , & > = 5 * * * E 5.n.E 4.E 7 2 i 1 * o.} y.i.^ U 5 = 1 8 1 0 > # # * # $           ",
"        # * * & , # > = 6 * * * h k 4.k i B 7 1 w 5 > B i X.} j b 8 * 1 5 1 7 > # @ * * *           ",
"        * * * & , @ > * 8 1 3 * > i 4 a 7 5 8 1 0 1 1 < 0 4 3 0 , 1 , 3 1 1 7 & # O % * *           ",
"        * * * $ > O > * 5 V c * 4 1 , O i 8 8 3 7 1 * 4 w : 1 a 1 , b V 1 1 3 # # O * * *           ",
"        > * * 4 > O > % 1 * @ - h 3 @ O i i 5 1 3 1 * h > # # v i 1 # 1 1 , > O # O * * #           ",
"        > * * 1 > O & O > $ # ; 1 b 1 M b 8 1 * 3 1 * 9 m 9 1 m 8 2 * 1 > $ > O # @ * * $           ",
"        > * * 1 & & 0 # q w # = * 1 9 V 1 8 1 * , , = - 3 ~ 7 & * 6 # 0 7 & 4 o @ O * * &           ",
"        3 ; * 1 & i a 1 w a & ; [ > * G b 8 8 * > = * ; a m ; 5 ` 8 # h 0 > V m # @ * * 1           ",
"        3 * * 1 a d.V 1 q j w * # * ; > > 8 6 * > * * * > 5 2 * * 1 h v w 1 c &.< @ * * 1           ",
"        3 # * 1 q 5.k > 7 7 # ; # = - * 1 r 6 * , * * ; * 1 1 1 * 6 o 9 3 > b 7.3 # * * 3 h         ",
"      h 3 & & > # q h O 1 3 # ; # * * * 1 8 1 1 > * & ; * 2 ; 1 * 8 . 9 3 & G v & @ = * 1 a         ",
"      M , , 4 , 3 O # O @ O $ ; 5 * * = 1 6 1 1 , & * * 1 1 ; 1 1 8 . # @ # o o O . O O & q         ",
"      ! 2.q.r.6.9.7 3 @ & * $ * 7 $ * 0 3 1 5 1 , * * # 3 9 * > w 6 . 1 # $ 1 S q.=.] T V E         ",
"        # @ # & , # > @ & * $ ; O $ * # & 6 8 1 , & * * # = * & * 1 O 1 * #                         ",
"      @ * * @ # # # > 1 & * 3 ; $ * * * 7 1 1 3 1 , & * 5 1 * - 1 1 $ 5 * >   > # # # @ # @         ",
"      @ * * # # & & , > q 3 4 4 w 0 0 7 7 q w 4 , 4 a 8 7 0 4 0 a 8 8 1 7 3   > @ $ # # * #         ",
"      * ; = * # > , 7 > 3 , 3 3 3 3 3 3 3 1 , 1 , 1 1 3 4 7 1 3 3 , 3 3 1 >     # % # # * *         ",
"              0 n 3                                                           0 w 3 * 3 3 ,         ",
"                                                                                b                   "
};
