/* XPM */
static char *e0b63c648ca6422a96c716d8739a07fcMo0dWo3N8RtoGFBv[] = {
/* columns rows colors chars-per-pixel */
"50 50 156 2 ",
"   c #E4EAC7",
".  c #E5EACA",
"X  c #E4E9C9",
"o  c #E4EACA",
"O  c #DFE5C1",
"+  c #E4E9C8",
"@  c #E3E8C8",
"#  c #DEE5BE",
"$  c #E1E7C2",
"%  c #E0E6C1",
"&  c #E6EBCC",
"*  c #E0E6C4",
"=  c #E2E7C5",
"-  c #E5EBC9",
";  c #E4EAC8",
":  c #E3E9C8",
">  c #E7ECCF",
",  c #E2E7C6",
"<  c #E2E8C4",
"1  c #E3E9C7",
"2  c #E4EAC9",
"3  c #DEE4BF",
"4  c #E6EBCE",
"5  c #E2E8C7",
"6  c #E6EBCB",
"7  c #E1E7C4",
"8  c #E0E6C2",
"9  c #E2E8C6",
"0  c #E8EDCF",
"q  c #E2E8C5",
"w  c #E4EAC6",
"e  c #E3E9C5",
"r  c #E7ECCD",
"t  c #E5EACB",
"y  c #E5EACC",
"u  c #E1E7C5",
"i  c #E1E7C3",
"p  c #E6EBCD",
"a  c #E3E8C7",
"s  c #E0E6BF",
"d  c #E3E8C9",
"f  c #E7ECCE",
"g  c #E3E9C9",
"h  c #E7ECCC",
"j  c #E5EBCB",
"k  c #E3E9C6",
"l  c #E4EACB",
"z  c #E4E9CC",
"x  c #E4E9CA",
"c  c #E8EDD0",
"v  c #E7ECD0",
"b  c #E5EAC9",
"n  c #E0E6C3",
"m  c #E8EDD1",
"M  c #DEE4C0",
"N  c #E7EDCF",
"B  c #DFE5C2",
"V  c #E3E9C4",
"C  c #E5EACD",
"Z  c #E2E7C7",
"A  c #E6EBCF",
"S  c #E8ECD2",
"D  c #E4EAC5",
"F  c #E4E9CB",
"G  c #E9EDD1",
"H  c #E7EBCD",
"J  c #DFE5BE",
"K  c #E1E7C0",
"L  c #E2E8C3",
"P  c #DFE5C0",
"I  c #E6EBC9",
"U  c #E9EED1",
"Y  c #E7ECCB",
"T  c #E1E7C6",
"R  c #E1E6C6",
"E  c #E5EBCA",
"W  c #E0E6C0",
"Q  c #E1E6C5",
"!  c #E6EBCA",
"~  c #E7EBD0",
"^  c #E5EBC7",
"/  c #E2E7C4",
"(  c #E1E6C3",
")  c #E9EDD4",
"_  c #E6EACE",
"`  c #EBF0D6",
"'  c #E8ECD1",
"]  c #DEE4BE",
"[  c #E4E9C7",
"{  c #E1E7C1",
"}  c #E7ECD2",
"|  c #E9EECF",
" . c #E6ECCA",
".. c #E8ECD0",
"X. c #E2E9C4",
"o. c #E3E8C6",
"O. c #DFE6BF",
"+. c #DFE5C3",
"@. c #DDE3BF",
"#. c #E5EAC8",
"$. c #DEE5BD",
"%. c #E7EBD1",
"&. c #E2E8C2",
"*. c #E7ECD1",
"=. c #EAEFD2",
"-. c #DDE3C0",
";. c #E0E6BE",
":. c #E8EDCE",
">. c #E8EDD2",
",. c #E6ECCB",
"<. c #EBEED7",
"1. c #EAEED5",
"2. c #DDE3BB",
"3. c #E0E7C0",
"4. c #E9EDD3",
"5. c #E0E6C5",
"6. c #DFE5BF",
"7. c #DAE1B7",
"8. c #DCE3B9",
"9. c #E6ECCC",
"0. c #E3EAC5",
"q. c #E9EED2",
"w. c #E3E8CA",
"e. c #E3E9C3",
"r. c #E5EBC8",
"t. c #E9EED0",
"y. c #DCE2BE",
"u. c #DFE6C0",
"i. c #DDE4BD",
"p. c #DDE3BE",
"a. c #E9EDD5",
"s. c #DEE4BD",
"d. c #DFE6BE",
"f. c #DDE4BC",
"g. c #DDE3BD",
"h. c #E7EDCD",
"j. c #E1E8C3",
"k. c #E2E7C8",
"l. c #E4EACC",
"z. c #E3E9CA",
"x. c #E0E5C3",
"c. c #E6EACD",
"v. c #E3E8C5",
"b. c #E7EDCE",
"n. c #EAEED3",
"m. c #E7EDCC",
"M. c #E9EED4",
"N. c #E4EAC4",
"B. c #E8EDCD",
"V. c #EAEED6",
"C. c #EAEDD5",
"Z. c #EAEED4",
"A. c #E7EBD2",
"S. c #EAEFD4",
"D. c #EBEFD9",
"F. c #E6ECCD",
/* pixels */
"  . X o . X O + @ # $ % & * = = - ; : > , O < 1 @ 2 ; 3 X 4 1 5 6 . X 7 8 1 9 0 6 q w e < 8 . . ; $ ",
"1 . r t . X 2 y e u 1 9 : % i 8 ; 1 1 p ; y - $ a + a $ + y + 1 X 6 > s $ 1 8 1 . e < O i i X . r ; ",
"9 1 d & f p 5 9 7 % ; 1 i g h . 1 7 q j ; f 6 q 9 u k 6 l . & y . . 1 9 7 q < z X q q x < ; c v y 9 ",
"9 1 1 1 p p % % O b 1 u # n . . . X n l - p @ q * u 7 X l j 1 1 X 6 ; ; X X : ; < d j m b f r t 9 M ",
"$ ; 1 1 1 - 1 9 1 ; e 8 % $ 1 f p a k t > N e e q B $ V t m b C r 2 m v . X 1 9 X Z 2 h 6 A S f x 3 ",
"D ; 9 ; 1 ; u 1 1 1 8 8 : 9 V 1 b F l G H x e 8 J K 1 + 6 < L 1 p + m v h X 3 P B q 1 q t m I % % % ",
"t @ 6 . f 1 % L ; 9 V P 8 < q 9 @ 8 2 ; u ; 6 q 8 , ; > ; 1 X k X k ; U v @ 2 + i w Y T ; R % % i < ",
"b t X . y E - : 9 * 5 1 O e X 6 7 W 1 b 1 u X   Q y X X 1 ; @ 7 7 d ! > c t ~ S < ^ 0 f . 8 ; 2 < < ",
". 6 t k 1 1 e < 9 P n @ Z q 1 1 / ( < O w < O 8 7 v A x q @ 9 u   r : ) _ & . 6 1 1 y ` ' L u a u X ",
"e k t q W L < 8 5 ] u . x 7 1 1 ( [ i e e < O < x . X 7 7 X ; 1 . c p 0 c & . 6 1 1 Z F u $ q 6 4 { ",
"i w w i P % O i . F + = @ q i i $ 5 < e : 8 e < 1 f . n 7 @ y f p u 6 & } y r i % 1 1 $ 8 i b | Z u ",
"i < < i 1 , i 8 $ ; 1 : x k 8 < L 1 i 8 i J 8 8 L  .. < 6 ..f y a % 1 A f a t e % ; ; P i e F : x ' ",
"u 1 < e ; P i < $ L  .1 p p n @ i < - 9 ; i O M ]   p a X.. 1 1 $ $ q X o.8 y ; ; u 1 9 q O.> q r 1 ",
"% $ i i 1 $ e w ; : 1 9 o.q q X i < 9 9 +.$ 8 @.] * 9 P W q 1 1 + a   X k i $ 5 ; - ; 1 k . k 7 - $ ",
"3 % 1 q < M . 6 n #.a 9 M <   / i i O @.P  .a 1 8 O i 8 < 8 $.+ 6 q 1 1 . X e < u ; [ 9 6 X 8 i , u ",
"u 9 . X < < X 6   %.9 + < 8 & X w i O O 3 + i 4 i M M @.O i : - x q 9 1 . . w w u 1 % 8 e   8 i $ P ",
"f g 6 X - 1 6 . v j F [ e < & & ; &.9 P $ ! *.=.d q -.;.P i ; ; X k 8 :.r b 1 ; i w n 7 8 < 8 8 O 8 ",
"q >.. . ; ; n w ,.~ > X < 8 9 ; 1 $ % a 9 p <.1.> 6 i 2.1 #.u * q O.8 t t 9 1 ; 8 < 3.] M i 8 e O < ",
"1 1 9 . i 8 X 1 6 v 4.:   W O i i 7 9 1 1 ; & ; & { 7 3 i w e 8 5.3 % % i 8 ; 9 8 i % % O $ * X 8 @ ",
"; 9 k @ 8 < E a [ h ' b o 7 e O ] t y :.; 1 V 1 + 2 : < < w 8 < u % 9 1 e M 6.% 8 i a a + ; X < 5 0 ",
"i 5 X k k q L P < X F 9 8 i ; u % $ h @ 8 8 q ; X @ e e u X x x < 8 i , 2 P 7.8.< < 1 1 ; ; . 7 1 @ ",
"3 u   X < n 1 5 W B L a < w 1 ; 1 5 7   < i @ . 6 X i < k X j 9.e 8 ; % , % / i i e 1 9 1 ; X < n X ",
". n 9 ; 9 u i i O O ; - d < X .   X b - 0.+ 6 q.w.a 9 a $ + 1  .+ ; ; 9 7 K < ; a + q   - ; i < x r ",
"n K ; ; ; 1 i O 8 8 9 ; h q X . 9 . y f f ;   . a L F $ L 1 1 1 e.3 &.P q $.% * L p 6 h ; ; < < < i ",
"; F h A b 1 8 8 r.n 8 < X . . 6 9 1 x v y 1 8 8 k . < i i e i < O 8 i 8 b t.X d X b $ 8 ; & t > 1 1 ",
"9 $   t F $ i e . X i < B 7 q k 9 1 1 @ 1 O i i   . < < e 8 < i y.M O 8 L + < +.1 ; :  .m j t v 1 9 ",
"T $ n A X q b & - 1 2 2 u u.O i < 8 + 1 i.7 8 i - 9 X z i f . @ 8 9 9 1     < O 7 X ! C 9.h $ + . q ",
"; W q < w g F + 1 - f f 4 5 e w w e $ &.p.i < e 1 ; a p + b X @ L b 1 ; . X > p q . : c r x $ 5 h q ",
"n B < e 9 ; ; ; 6 6 1 1 c A & p . @ @ @ T $ 9 ; 2 & 1 9 ; - i 1 9 1 6 . : r ' 1 X X   x . . t 1 B 7 ",
"3.x e e u 9 1 1 h X ; 9 q 7 T ; X X q i &.+ 9 9 p : 1 ; ; 1 ; p 1 ; 6 . 1 r p % X X & q.X X 1 L / i ",
"9 1 i e i i L ; 6 . & ; 1 % % + . q i 8 9 1     y ; ; 9 X @ y r 6 q 1 - k o 1 ; x q.:.a.6 . i L 1 9 ",
"L P i w M 8 % 1 6 X t , b P L : 6 k ^ < u ; . X p - ; 9 X . X 5 . e 1 1 @ 7 ;  .6 c t 6 @ @ 5 + 9 1 ",
"s.6.$ 1 9 1 X 6 f ! @ J 8 J * 1 2 p ; 9 q 6 6 6 h . . o u ! 6 X + ; e 8 + 1 2 f p 1 X . X @ 9 ; 9 ; ",
"n   C ; 9  .. 6 4.f o J k t . . p  .- ; k X @ h X 6 o K 8 4 . @ F p e w f f p [ $ a n n e 7 ; ; ; 9 ",
"9 X 6 o $ + . U ,.8 * W b ; [ 1 . e 9 9 i i @ . X q 1 % 1 X ; 9 b y e < 1 . e i 7 d.< a X 7 ; F . @ ",
"k . k A b p   t q { { ; :.r c = g = 9 9 i < . @ n @ 9 $ n . 9 9 % 9 i e 7 . < 8 7 f.; 0 > X $ ; q q ",
"y 9 5 + ; y r - X . ; ; ; 0 f ; : a 9 1 O.7 w 8 % : x & u ; 6 k i 8 b ; ; 9 + ; i 8 g.< y & + < l t ",
": $ : Z $ 1 & ; 6 6 ; ; % ; [ $ P % ; * O.q w < D 5 h.@ 1 1 k x 8 e j.y 1 1 & F < < 7 k.+ a 6.[ j X ",
"% l.w i $ a 1 ; : ; t / M 8 L O % $ 1 p 5 u   X 1 3 9 9 < < z.X 1 1 w e n X X 7 u 9 9 - 7 X O : ' > ",
"L > w < , y u ; y & @ x.8 8 a + - 5 $ , F 8 B . ; e.u ; < i t g 1 1 e i . G X n % $ 1 - x i 5 p 4 b ",
"$ ; . @ < < s . 1 ; i 8 k 6 . 6 0 f 9 q 8 O q ( 9 X + : k { e i 1 9 ; 1 9 6 L $ u X   q.4 > . @ W i.",
"$ : 7 B 8 8 w 7 - 1 8 < 9 . . . F p X . < O & X n @ r c.m x < O ; u 1 ; 1 . 1 - v.] y a.) 1.c m . . ",
"r.k 9 +.8 : b : x x 2 $ P @ 9 % 1 1 . 6 g 8 % ;   @ X A b.*.; P 2.i $ % ; ; f f - 1 9 5 n...m m 4 & ",
"6 6 1 9 , y r :.j . 1 C f   f u 9 ; w k m.k 5 > X n = x h 4 0 a a $ u 9 1 ; f y ; u { &.9.& & 6 4 r ",
"q.v c . T 1 i 8 w i , f X h y 1 1 ; ; 9 b : . M.. u a T ; X < e 1 1 m q.6 t > X 1 ; q u h v q.. 9 + ",
"r 6 X q P P i < i < P u . . :.+ N.L 1 ; . + 1 b B...:.p ; 1 i i ; 1 q.m v 7 > 6 ; - X h 6 c m d 2 5 ",
"1 9 i 8 8 ; 1 ; B 7 { x x k f !   9 q @ t 1 ; 1 U a.m V.C.t + f t q k k 6 x 0 0 x a $ + 4 > 2 f r 8 ",
"9 1 i 8 u N.; ; . @ t . & k y Z.h X n X p ; F j.k o 4 X . r 0 a e x i L ; m f f r 9 @ p 4.} + p 1.A.",
"5.i     1 ; m X . . 1 y X r.: p . . 1 - ; 1 x   : , e 8 i E t   a 2 ; 1 p & m U S.2 + p 6 X ; 1 . 6 ",
"2 y X . ; - > . n q % ; t m y 2 . 6 1 - ; 9 k h f L e O L + . 7 W % 9 9 9 : d 6 D.F.< +     - - k 7 "
};
