/* XPM */
static char *a760d689bc094591c41ef37dc65dd363NdqEbOuU6q6EY8iM[] = {
/* columns rows colors chars-per-pixel */
"50 50 123 2 ",
"   c None",
".  c #241D17",
"X  c #261E19",
"o  c #281E19",
"O  c #2B231D",
"+  c #30261F",
"@  c #2D2521",
"#  c #2F2924",
"$  c #302721",
"%  c #332A24",
"&  c #392E26",
"*  c #362E28",
"=  c #392E29",
"-  c #3B3027",
";  c #37322B",
":  c #3C332C",
">  c #3D382F",
",  c #3E3630",
"<  c #3E3932",
"1  c #41352D",
"2  c #44392D",
"3  c #4A3C2F",
"4  c #423631",
"5  c #433B34",
"6  c #493D35",
"7  c #473D39",
"8  c #4A3E38",
"9  c #4B4136",
"0  c #464139",
"q  c #4C423C",
"w  c #4F483C",
"e  c #51443C",
"r  c #544A3E",
"t  c #5A4D3F",
"y  c #4E4742",
"u  c #4F4942",
"i  c #544641",
"p  c #544B43",
"a  c #5A4E44",
"s  c #574D49",
"d  c #5B4E4A",
"f  c #535047",
"g  c #5B5345",
"h  c #57504A",
"j  c #5C524B",
"k  c #5F5651",
"l  c #62554D",
"z  c #68564D",
"x  c #65584F",
"c  c #64594E",
"v  c #68584F",
"b  c #625751",
"n  c #6A5753",
"m  c #625B53",
"M  c #645B50",
"N  c #645A52",
"B  c #665A53",
"V  c #665C50",
"C  c #665E52",
"Z  c #645B54",
"A  c #685952",
"S  c #685A52",
"D  c #695C53",
"F  c #695D53",
"G  c #685E54",
"H  c #695E54",
"J  c #6E5E55",
"K  c #6D5D56",
"L  c #695C54",
"P  c #635C58",
"I  c #675E59",
"U  c #696055",
"Y  c #696256",
"T  c #6C6054",
"R  c #6D6054",
"E  c #6F6158",
"W  c #6A605C",
"Q  c #6B645E",
"!  c #6D625D",
"~  c #716358",
"^  c #70625A",
"/  c #72635A",
"(  c #75675A",
")  c #74675B",
"_  c #71675D",
"`  c #76655C",
"'  c #74675A",
"]  c #746A5C",
"[  c #766B5D",
"{  c #76695F",
"}  c #75695E",
"|  c #6A6360",
" . c #746B64",
".. c #786860",
"X. c #7A6C61",
"o. c #786E60",
"O. c #786D63",
"+. c #7A6F62",
"@. c #7D6F63",
"#. c #7B6B65",
"$. c #7E6D65",
"%. c #7A6C63",
"&. c #776C68",
"*. c #7B6F6B",
"=. c #7D7165",
"-. c #7F7267",
";. c #7B7064",
":. c #7A7169",
">. c #82726B",
",. c #81756C",
"<. c #877A6C",
"1. c #887969",
"2. c #8B7B6D",
"3. c #8A7C6F",
"4. c #827871",
"5. c #8B7D70",
"6. c #8B7D72",
"7. c #918174",
"8. c #908378",
"9. c #928678",
"0. c #948478",
"q. c #958479",
"w. c #A08F82",
/* pixels */
"                                                                                                    ",
"                                          : : *                                                     ",
"                                        * 7 7 %                                                     ",
"                                        : 5 p 7 ;                                                   ",
"                                        ; 7 s p y                                                   ",
"                                      j * : e J w                                                   ",
"                                      j : : z z : p                                                 ",
"                                    w > % : = * = :                                                 ",
"                                    7 5 @ 4 = : : O <                                               ",
"                                  : w : % : $ * 5 * :                                               ",
"                                9 l 9 d 7 : : ; 5 : * :                                             ",
"                              5 a <.c E l 9 5 > 5 5 5 8                                             ",
"                              g ) 9.{ / { 5 q 4 5 7 z S j   m                                       ",
"                              H 1.w.q.) T 5 8 : 1 8 X...l u Q                                       ",
"                            C g 2.7.q.3.-.s e : f g >.$.D s |                                       ",
"                            g C @.-.X.6.8.W P * y N J ` D j p                                       ",
"                          p e X.j _ H 6.N u j % q l #./ d y p 0                                     ",
"                            5 , 8 s U l l * : % * o : p p 8 w q                                     ",
"                            q # - 2 9 5 * * * @ X X * > 8 n e E                                     ",
"                            O : r p N U O % % O @ $ * * $ 4 w l                                     ",
"                            % w x r E 9 O % : % : % % O O O , p                                     ",
"                            1 a / p X.* * = > * : * % O O @ * d                                     ",
"                          $ q t { l c X : 8 y O > > > $ O @ $ S                                     ",
"                          * s r ;.T 7 O O : 7 @ > < + O O O % X.                                    ",
"                          : g r { ) 5 * w m q O 9 g 4 & % X $ ,.                                    ",
"                          : g p R x : 8 p m 9 O > 4.b : : X . {                                     ",
"                          5 g w S r > 7 s Z 9 X : :.d : % X O N                                     ",
"                          7 g 9 H p : q L  .p O =  .j : % X % a                                     ",
"                          9 r 9 v j - p L ,.p O * :.l : @ X * d                                     ",
"                          e 9 t a p < Z l 4.9 O @ 4.d 5 $ O > p                                     ",
"                          e 3 a r 8 0  .i :.9 O % ! s g : O * d                                     ",
"                          2 1 t 2 : 9 s , *.8 O % Z d :.9 O % l                                     ",
"                        = : 1 r 4 : Z *.:  .9 O $ m l  ., X : L                                     ",
"                        * > 1 6 e 5 Z &.4 b q O $ j W C * X : H                                     ",
"                        : 5 % 6 d q I ! q I y @ % g j s $ X > j                                     ",
"                        : 1 $ 5 e < Z Z q k q @ $ s d y O . * q                                     ",
"                        % & $ 1 & % s j q j q * = s e 7 @ o % 7                                     ",
"                        $ $ + 1 O O * 7 q h 5 * = q 5 * O X O 8                                     ",
"                        $ $ $ 1 O @ * O , y 5 $ = , % O O X $ =                                     ",
"                        * * $ * . # % O $ *   @ % * * $ $ o > =                                     ",
"                        > $ $ % X * * @ O O   # = = 4 5 * O > =                                     ",
"                          : O $ + 5 : *   ,   # * : q s p 5 $ :                                     ",
"                          5 O &     , %         *           > 9                                     ",
"                            O :     * *         $           e s                                     ",
"                              w     * $       $ $ %         x g                                     ",
"                              p   * * O       % $ *         {                                       ",
"                                  * $ @         * 1 4        .                                      ",
"                                  4 =               5                                               ",
"                                8 e <                                                               ",
"                                  <                                                                 "
};
