/* XPM */
static char *result[] = {
/* columns rows colors chars-per-pixel */
"50 50 80 1 ",
"  c #000000",
". c #090706",
"X c #0A0807",
"o c #0D0B0A",
"O c #110E0C",
"+ c #13110F",
"@ c #18120F",
"# c #161311",
"$ c #1A1613",
"% c #1E1916",
"& c #1E1B19",
"* c #231D16",
"= c #231E1A",
"- c #272017",
"; c #282017",
": c #26211C",
"> c #2B231B",
", c #2F281F",
"< c #31271E",
"1 c #32291E",
"2 c #272320",
"3 c #2A2622",
"4 c #2D2925",
"5 c #2F2C28",
"6 c #332C23",
"7 c #392E23",
"8 c #322D29",
"9 c #3C3125",
"0 c #35322D",
"q c #3C342C",
"w c #353330",
"e c #3B3632",
"r c #3D3933",
"t c #3E3D39",
"y c #403527",
"u c #433629",
"i c #453A2B",
"p c #4B3D2E",
"a c #403730",
"s c #433C33",
"d c #493E32",
"f c #433F3A",
"g c #50412F",
"h c #474033",
"j c #4D4133",
"k c #44413C",
"l c #4B443C",
"z c #524431",
"x c #554834",
"c c #554A3C",
"v c #464440",
"b c #4A4642",
"n c #4D4A45",
"m c #4F4E49",
"M c #524B42",
"N c #534E48",
"B c #55524C",
"V c #5A544C",
"C c #575553",
"Z c #595653",
"A c #5D5A55",
"S c #625C54",
"D c #625E5A",
"F c #64615C",
"G c #69635C",
"H c #6D6B64",
"J c #6F6D68",
"K c #706A63",
"L c #726F6A",
"P c #73726C",
"I c #777771",
"U c #797670",
"Y c #7D7A74",
"T c #7F7E7A",
"R c #84827C",
"E c #8D8D87",
"W c #928D88",
"Q c #919089",
"! c #969690",
"~ c None",
/* pixels */
"~~~~~~~~~~~~~~~~~~~~~~AAFP~~~~~~~~~~~~~~~~~~~~~~~~",
"~~~~~~~~~~~~~~~~~~RJSMsnAklGUW!~~~~~~~~~~~~~~~~~~~",
"~~~~~~~~~~~~~~~~KKlpdpiNAlii96lGY~~~~~~~~~~~~~~~~~",
"~~~~~~~~~~~~~~HS1Scxzzi04ryiiuVa9KQ~~~~~~~~~~~~~~~",
"~~~~~~~~~~~~~KMpzMl9usrevwasdiNuy7dUT~~~~~~~~~~~~~",
"~~~~~~~~~~~EGippi9Nnlt324&*wfSMyi9usHE~~~~~~~~~~~~",
"~~~~~~~~~~LVppiiit43$$2we8=#%=8ld9pislH~~~~~~~~~~~",
"~~~~~~~~~LluSi9Nf#&43wtFHCfw34#*rd9iNisP~~~~~~~~~~",
"~~~~~~~~AiiplMB32$8Fm82#+o#=tA5&:3nf69psL~~~~~~~~~",
"~~~~~~~AsipjrA2$8CC$X        .wb5&:e7upysI~~~~~~~~",
"~~~~~~~myii7e22eD5X            oke2287di6N~~~~~~~~",
"~~~~~~Fs9p9n2=kZ#                vb&:q9i1rn~~~~~~~",
"~~~~~~6bMdk23rt.                 .wv32kqqq3C~~~~~~",
"~~~~~n<1eN3:vvX                   .nv==f6;*n~~~~~~",
"~~~~~k119r:3no                     +Fw20971r~~~~~~",
"~~~~~667s20w#                       $b6:r776m~~~~~",
"~~~~s,69r2=w                         3:=e766l~~~~~",
"~~~~e17u4$&X                         .#$3r17f~~~~~",
"~~~~0qql&=#                           .&*sslfP~~~~",
"~~~~6e5m0RX                            034004~~~~~",
"~~~~*;>kNH                             +r:***~~~~~",
"~~~~111hAm                             .4:;<*~~~~~",
"~~~~,970wt                              #:;>:~~~~~",
"~~~~>778*#                              o>:*,~~~~~",
"~~~~>914:+                              O=>*~~~~~~",
"~~~~>9762#                              O>>>~t~~~~",
"~~~~>91,:#                              o*>*~~~~~~",
"~~~~>1152#                              O>,:,~~~~~",
"~~~~;1,,3#                              o:<>,~~~~~",
"~~~~,1>33#                              o*>>~~~~~~",
"~~~~*1>,4#                              O=>*;~~~~~",
"~~~~*<>:6#                              O*<*:~~~~~",
"~~~~->>;5O                              +*;;>~~~~~",
"~~~~>>>>4o                              O%;;>~~~~~",
"~~~~,><::.                              O$;;,~~~~~",
"~~~~4>>6,                               X$>>*~~~~~",
"~~~~4<<6:                               .*>>:~~~~~",
"~~~~<>><=                               X$>:;~~~~~",
"~~~~61>4*                               o*,;6~~~~~",
"~~~~8;<68.                              $*;,6~~~~~",
"~~~~8**68.                             .3*>=7f~~~~",
"~~~k8=<4&X                             o==6>8f~~~~",
"~~~N66848.                             o$@**=t~~~~",
"~~~DLYTII=                            .bYKDSVS~~~~",
"~~~~**=38=o                           O~~~~~~~~~~~",
"~~~*>;**==3o                         $~4******~~~~",
"~~~=>>**=342#          OX          O48~4*;**>*~~~~",
"~~~;<<<*33035$X.    .#243%o .   .o=444~~:;**,;~~~~",
"~~~~~~~em6~~~~~~~~~~~~~~~~~~~~~~~~~~~~~ee6,664~~~~",
"~~~~~~~~~~~~~~~~~~~~~~~~~~~~~~~~~~~~~~~~n~~~~~~~~~"
};
