/* XPM */
static char *_8591edfb6f34b01ed04f2e9c511d891NSraG32vj1vWrUwx[] = {
/* columns rows colors chars-per-pixel */
"50 50 204 2 ",
"   c None",
".  c #030305",
"X  c #07070D",
"o  c #0A0A0E",
"O  c #07080A",
"+  c #10140B",
"@  c #0C0910",
"#  c #1B1B13",
"$  c #1C1219",
"%  c #26241D",
"&  c #29231B",
"*  c #231C26",
"=  c #291E2C",
"-  c #2C1B27",
";  c #261E31",
":  c #2E1F32",
">  c #311F34",
",  c #2B202E",
"<  c #2A2628",
"1  c #3B2E2D",
"2  c #332828",
"3  c #2E3C22",
"4  c #2D2234",
"5  c #2F2638",
"6  c #3B2734",
"7  c #352B35",
"8  c #3B2B35",
"9  c #3C253C",
"0  c #3C293A",
"q  c #332836",
"w  c #2C3134",
"e  c #343133",
"r  c #3B3334",
"t  c #32343C",
"y  c #3B323B",
"u  c #3E393B",
"i  c #373D3A",
"p  c #343423",
"a  c #452F2E",
"s  c #44392E",
"d  c #4A3A2E",
"f  c #4A3529",
"g  c #523A2B",
"h  c #57382D",
"j  c #442B34",
"k  c #482C34",
"l  c #45273D",
"z  c #422C3C",
"x  c #492D3A",
"c  c #572F34",
"v  c #453434",
"b  c #4C3335",
"n  c #443A31",
"m  c #43353C",
"M  c #4B3339",
"N  c #4B3A3B",
"B  c #493C36",
"V  c #523334",
"C  c #563C32",
"Z  c #5C3B33",
"A  c #5A373B",
"S  c #55383E",
"D  c #5A3D3B",
"F  c #573637",
"G  c #623936",
"H  c #673C38",
"J  c #3C483F",
"K  c #5E4E2C",
"L  c #574627",
"P  c #5C5328",
"I  c #4C423D",
"U  c #484538",
"Y  c #5B4134",
"T  c #5F4E3B",
"R  c #564739",
"E  c #5F5133",
"W  c #565239",
"Q  c #4B5D3B",
"!  c #754A2B",
"~  c #775A2C",
"^  c #634333",
"/  c #604935",
"(  c #69493B",
")  c #684335",
"_  c #714234",
"`  c #744C3B",
"'  c #7A4F3E",
"]  c #625935",
"[  c #665235",
"{  c #75563D",
"}  c #7C543C",
"|  c #7A5434",
" . c #674C28",
".. c #636A3E",
"X. c #716332",
"o. c #7C6C34",
"O. c #78622C",
"+. c #2E2F44",
"@. c #3C3645",
"#. c #333B4E",
"$. c #383648",
"%. c #393C59",
"&. c #393E69",
"*. c #463845",
"=. c #523C45",
"-. c #643A41",
";. c #2F4655",
":. c #38465A",
">. c #384B68",
",. c #3D5A7F",
"<. c #454244",
"1. c #4D4645",
"2. c #464B49",
"3. c #584948",
"4. c #4F5643",
"5. c #535C43",
"6. c #5C594C",
"7. c #4B4B55",
"8. c #564C52",
"9. c #49575B",
"0. c #545458",
"q. c #585856",
"w. c #6B4743",
"e. c #674847",
"r. c #755C51",
"t. c #745249",
"y. c #596059",
"u. c #616B4C",
"i. c #746849",
"p. c #65714A",
"a. c #6B7B4E",
"s. c #677647",
"d. c #7D7A44",
"f. c #666B53",
"g. c #736052",
"h. c #6B7C51",
"j. c #6A7555",
"k. c #707D5F",
"l. c #485078",
"z. c #5D5763",
"x. c #635D6A",
"c. c #5E676D",
"v. c #5B6671",
"b. c #4D646B",
"n. c #6C7671",
"m. c #737579",
"M. c #6A6D6A",
"N. c #89562F",
"B. c #84553E",
"V. c #89642C",
"C. c #976A25",
"Z. c #8B702D",
"A. c #89683D",
"S. c #976837",
"D. c #847534",
"F. c #937630",
"G. c #825545",
"H. c #876544",
"J. c #997044",
"K. c #8D6D58",
"L. c #9F7453",
"P. c #A37B4C",
"I. c #6D8153",
"U. c #7A8F57",
"Y. c #768C5B",
"T. c #76895A",
"R. c #7C9454",
"E. c #7C935A",
"W. c #6F8163",
"Q. c #918B39",
"!. c #81925B",
"~. c #829356",
"^. c #B59155",
"/. c #AD9970",
"(. c #D39666",
"). c #405980",
"_. c #51668C",
"`. c #4E7288",
"'. c #48659F",
"]. c #4F7290",
"[. c #666E84",
"{. c #6A7796",
"}. c #707AA1",
"|. c #547CC6",
" X c #7F8983",
".X c #778897",
"XX c #6987AF",
"oX c #7188A8",
"OX c #7E91AF",
"+X c #7E9DB1",
"@X c #5A84DB",
"#X c #6890D7",
"$X c #5D88EE",
"%X c #858087",
"&X c #95979A",
"*X c #A79A93",
"=X c #A1A99B",
"-X c #899DA8",
";X c #9199A4",
":X c #9FADB6",
">X c #AFA5AC",
",X c #A8ADB2",
"<X c #B0B8BA",
"1X c #8FA3C0",
/* pixels */
"                                                                                                    ",
"                                                                                                    ",
"                                                                                                    ",
"                                                                                                    ",
"                                                                                                    ",
"                                                                                                    ",
"                                                                                                    ",
"                                                                                                    ",
"                                                                                                    ",
"                                                                                                    ",
"                                                                                                    ",
"                                    0.              S.! C.A.L                                       ",
"                                    0.            N.^./.V.^.~                                       ",
"                                    q.J         / ! V.C.! S.S./                                     ",
"                                      8.       .r.L.| ) b Z S.g                                     ",
"                                      S B   ^ ^ m Z ) | =.M ~ L                                     ",
"                                    d g.Q   W f.p.<.} J.*XK. .Y                                     ",
"                                    v I u.u b 1 U b | J.(.P.                                        ",
"                                      n k.l.{.t._ C C V B.C                                         ",
"                                      u b.@X|.9.e.1.v 1 6.                                          ",
"                                    q.}.#X$X'.:.8 2.W { I                                           ",
"                                    3.0.XX'.>.%.*.q.2.U t r b V Y                                   ",
"                                    F.P #.>.#.%.M I 0.2., z 6 6 k w.}                               ",
"                                  { H.s 7 +.0 y j 8 m q = 4 4 > > k G.}                             ",
"                                  G B.S r 0.&.>.#.t e , 4 0 9 l 7 0 l '                             ",
"                                  H G z 5 k e.z.v.8.D , 8 d V A N @.: A (                           ",
"                        m.U       Z b 7.y *.Y _ H.Z Z @.t n S V } e.= x V                           ",
"                        u m d     G.M 7.*.v.[.*.T N $.,.>.7 9 4 ' w.; x f                           ",
"                            8 6 -.x V x.@.] m.oX;.:._.).].c.E e 3.z q z                             ",
"                                Y ` 1.2.4.D.d.-X`.`.OXoX.Xi.F.D.I 0 0 1                             ",
"                                1 <.*.8.I Q.Q..X1X+X-X:X6.D.A.Z.X.z 8                               ",
"                                  y 0 8.q.6.d.5.9.9.9.<.b [ X.D.o.p                                 ",
"                                U     6 =.x.n.y.j.E.~.R.f.U P O.o.                                  ",
"                                    s L Y j =.m.n.k.Y.E.R.p.E ~ K R                                 ",
"                                  Y ( ] o.R z z x.;X XW.U.!.K A.H.t.                                ",
"                                  b Z g L ..T.f.r 7.m.,X=Xk.T ` G a                                 ",
"                                b , * e.i.U.R.R.Y.5.i <.%X<X&X= 4                                   ",
"                                V ; w u.U.E.E.E.!.E.T.5.i *.>Xx.7                                   ",
"                              v 6 e I.E.E.E.E.E.E.E.E.E.h.u.r *.V                                   ",
"                              8 S t.s.s.s.a.a.a.h.a.a.h.a.j.N k c ) {                               ",
"                          # o ; v w.$ . . X o @ @ @ X O X . $ * q D e.- * 3                         ",
"                          % # # % 2 # + + + + + + + + + + + + + % & 2 % <                           ",
"                                                                                                    ",
"                                                                                                    ",
"                                                                                                    ",
"                                                                                                    ",
"                                                                                                    ",
"                                                                                                    ",
"                                                                                                    ",
"                                                                                                    "
};
