/* XPM */
static char *_d48ab0e2b50499297bb2c12697bf77bgIBbQTIvCMtYizpZ[] = {
/* columns rows colors chars-per-pixel */
"50 50 184 2 ",
"   c None",
".  c #0C0907",
"X  c #070809",
"o  c #0B0A0A",
"O  c #120D07",
"+  c #130E0A",
"@  c #180F0A",
"#  c #0F110F",
"$  c #161005",
"%  c #1A120B",
"&  c #15100C",
"*  c #0F0F10",
"=  c #141513",
"-  c #1A1612",
";  c #1B1814",
":  c #1B1B19",
">  c #22150B",
",  c #25190C",
"<  c #2C1A0C",
"1  c #301A07",
"2  c #321D0D",
"3  c #221B14",
"4  c #2D1D11",
"5  c #231E19",
"6  c #251511",
"7  c #321D12",
"8  c #36210F",
"9  c #3A210D",
"0  c #2D2114",
"q  c #24221D",
"w  c #2C231C",
"e  c #352213",
"r  c #3B2413",
"t  c #3D2915",
"y  c #34261B",
"u  c #3D2719",
"i  c #33291E",
"p  c #3B2C1D",
"a  c #262522",
"s  c #2C2621",
"d  c #2A2A24",
"f  c #2C2D2A",
"g  c #332B22",
"h  c #3C2F22",
"j  c #332F2A",
"k  c #2E302B",
"l  c #3C3124",
"z  c #33332C",
"x  c #39352C",
"c  c #333431",
"v  c #393631",
"b  c #373A35",
"n  c #393A35",
"m  c #373938",
"M  c #3D3D3B",
"N  c #412614",
"B  c #422915",
"V  c #4C2D16",
"C  c #432718",
"Z  c #442E1C",
"A  c #4A2C19",
"S  c #512F1A",
"D  c #522F16",
"F  c #453016",
"G  c #45311E",
"H  c #4C321D",
"J  c #53331B",
"K  c #5B361C",
"L  c #50381D",
"P  c #5C3A1D",
"I  c #533116",
"U  c #603A1E",
"Y  c #432F22",
"T  c #423323",
"R  c #4C3522",
"E  c #4E3823",
"W  c #43362B",
"Q  c #4D3729",
"!  c #4F3B28",
"~  c #513320",
"^  c #543C24",
"/  c #5C3D23",
"(  c #5C3F2B",
")  c #563B28",
"_  c #433D35",
"`  c #4E3930",
"'  c #403F3C",
"]  c #633C23",
"[  c #6E3F24",
"{  c #4F422A",
"}  c #5D4226",
"|  c #4F4237",
" . c #44433E",
".. c #4F4038",
"X. c #524130",
"o. c #5E493B",
"O. c #654224",
"+. c #694126",
"@. c #624328",
"#. c #6F462A",
"$. c #674B2D",
"%. c #6D4B2D",
"&. c #70472D",
"*. c #76492B",
"=. c #6A502C",
"-. c #70502C",
";. c #7A522E",
":. c #634930",
">. c #6A4A31",
",. c #624A39",
"<. c #704B32",
"1. c #775332",
"2. c #72563C",
"3. c #464641",
"4. c #474844",
"5. c #4B4B46",
"6. c #4D4D4A",
"7. c #4B4644",
"8. c #534B45",
"9. c #574E48",
"0. c #4D504B",
"q. c #52514D",
"w. c #5D534C",
"e. c #545452",
"r. c #585653",
"t. c #575956",
"y. c #5B5A55",
"u. c #5C5C5A",
"i. c #685348",
"p. c #605F5C",
"a. c #665E57",
"s. c #755650",
"d. c #5F615C",
"f. c #7C6547",
"g. c #61615D",
"h. c #6A635C",
"j. c #786951",
"k. c #5D6261",
"l. c #656563",
"z. c #6F6661",
"x. c #6B6965",
"c. c #6C6C6A",
"v. c #756B65",
"b. c #796D66",
"n. c #71716D",
"m. c #757475",
"M. c #777873",
"N. c #7C7B7A",
"B. c #815E36",
"V. c #845B3C",
"C. c #8A6339",
"Z. c #8F5F52",
"A. c #8D6749",
"S. c #85645A",
"D. c #957455",
"F. c #827F7D",
"G. c #81837F",
"H. c #848381",
"J. c #868887",
"K. c #8B8B8B",
"L. c #898788",
"P. c #949391",
"I. c #989997",
"U. c #9B9B99",
"Y. c #A49F9E",
"T. c #A0A19F",
"R. c #A4A4A5",
"E. c #AEACAC",
"W. c #B0AEAE",
"Q. c #B0AEB0",
"!. c #B5B3B4",
"~. c #B8B7B8",
"^. c #BAB9BC",
"/. c #C0BFBC",
"(. c #C4C0C0",
"). c #CBCBCB",
"_. c #DEDEDC",
"`. c #E6E6E5",
"'. c #EEEEEE",
"]. c #F7F8F6",
"[. c #F8F9F7",
"{. c #FAFAF9",
"}. c #FCFCFB",
"|. c #FBFBFC",
/* pixels */
"                                                                                                    ",
"                                              }.}.                                                  ",
"                                              [.].                                                  ",
"                                          c.U.T.c.  6.                                              ",
"                                          5.c.u.e.6.l.5.                                            ",
"                                           .t.6.6.r.u.                                              ",
"                                           .s.i.w.q.g.                                              ",
"                                          x.S.Z.8.g.e.l.'.|.                                        ",
"                                        I.6.y.s.k.u. .n./._.E.`.{.                                  ",
"                                        H.n s ` 5.n a n y.y.  {.{.                                  ",
"                                      P.P.6.5 % s % : j z d q                                       ",
"                                    5.y.f l ) Z p Z ; q j q :   g.                                  ",
"                                      a ; $.+.] K I r r h ; o z  .3.                                ",
"                                      O 4 -.&.[ ] J U K J 3 o c r.l.                                ",
"                                      + G O.1.O.@.] [ P V 0 X =  .                                  ",
"                                      & y V 1.%.] [ +.K V < . O g t.                                ",
"                                      5 - G E >.%.%.1.O.B 2 q o w y.M.                              ",
"                                = = : e.: 7 U *.V.] P } E r x.f q.l.u.u.                            ",
"                        = = = = = = c q.k 3 >.:.f.;.+./ L 4 N.n.n v d 6.                            ",
"                      = = = = = = = m q.d 3 K ( 2.C.B.=.F i K.J.5 + + M                             ",
"                      = = = = = = s w ; 5 > ^ / B.O.J H 7 < h.m.T X.y 3                             ",
"                        = = = = = ,.%.T @ 6 r Z E 7 e C r , 6.9.Z A +.(                             ",
"                        = = = = q >.A A e , % , 4 C C O.V r g ..4 B ] H                             ",
"                          = = = x %.J 7 $.H r o O A I O.P V < W < A ] R                             ",
"                          = = = 5 G E B J V 2 . O r I K %.V 1 r ! T J   z 4.                        ",
"                          = = = ; A r @.2 2 > + O < I I J 8 < < < r J T c                           ",
"                            = = 5 u 3 E 2 > % O + > r N 2 G Y r J D [ (                             ",
"                            = = 3 u % % p % % o % % < < 8 G i.v.Q P [ ~                             ",
"                              = - p i 0 p % . X % + < G { y $ v.n.o.I                               ",
"                                = = % ; + o X X O % h G + > h.P._ a.g                               ",
"                                = = = # o X X X X o O l l b.(.5.    e.                              ",
"                                    = = = X X X f X o o t.^.M                                       ",
"                                      = = o X X u.c = u.!.M =                                       ",
"                                      : a = X X u.m.l.E.3.= o                                       ",
"                                      d.G.M = X u.R.!.q.0.u.c =                                     ",
"                                      a c 6.m * L.~.6.e.q.c c f X                                   ",
"                                      z z f y.u.Q.u.N.l.a z z z : o                                 ",
"                                      d z d p.R.r.F.K.N.d z n d.s 0                                 ",
"                                      f 3.e.Y.8.| K.K.K.4.3.6.a g r e                               ",
"                                      z 7.E.o.+.,.K.K.K.H.z b  .t ] R                               ",
"                                        W._ J J a.K.K.K.K.q.q.l H } r                               ",
"                                      ^._ r r r z.K.K.K.K.L.W H t 2 B                               ",
"                                    ~.e.4 2 2 N v.K.K.K.K.K.F.y r / S                               ",
"                                  !.u.    r C C z.K.K.K.K.K.K.w.9 S Z                               ",
"                                !.u.      2 2 r h.K.K.K.K.K.K.H.p r e                               ",
"                              ).g.      A 8 8 8 | K.K.K.K.K.K.L.Z 8 8 e                             ",
"                                      A.#.V 8 8 g q.q.q.q.q.q.q.>.K K r                             ",
"                        n n n n ` ] <.@.B e 2 < 3 m n n n n n j.D.V.] r v n n n n                   ",
"                    n n n n n n j i w w w j z z c n n n n n v >.<./ 9 e n n n n n n                 ",
"                      n n n n n n n n n n n n n n n n n n n n v v x x v n n n n n                   "
};
