/* XPM */
static char *f16f849b60304a22d20204eda9e9a9c6uK7Ys931YxNYMgj8[] = {
/* columns rows colors chars-per-pixel */
"50 50 240 2 ",
"   c None",
".  c #0D0F0F",
"X  c #0B1313",
"o  c #0E1010",
"O  c #0F1111",
"+  c #0F1212",
"@  c #0F1313",
"#  c #101212",
"$  c #111414",
"%  c #121515",
"&  c #121616",
"*  c #131616",
"=  c #131717",
"-  c #1B1513",
";  c #141818",
":  c #151818",
">  c #151919",
",  c #171818",
"<  c #161919",
"1  c #16191A",
"2  c #171B1B",
"3  c #1B1A18",
"4  c #191D1D",
"5  c #1B1E1F",
"6  c #1B1F1F",
"7  c #221916",
"8  c #201B16",
"9  c #2D1914",
"0  c #3A1A13",
"q  c #3C1B13",
"w  c #3D1B13",
"e  c #3E1C13",
"r  c #3C101D",
"t  c #1B1F20",
"y  c #1D2021",
"u  c #212526",
"i  c #222627",
"p  c #262727",
"a  c #202728",
"s  c #232728",
"d  c #242829",
"f  c #25292A",
"g  c #262A2C",
"h  c #282929",
"j  c #2A2E2F",
"k  c #2A2F30",
"l  c #2D3133",
"z  c #2E3335",
"x  c #2F3335",
"c  c #2F3436",
"v  c #2F3536",
"b  c #303536",
"n  c #303537",
"m  c #323739",
"M  c #303838",
"N  c #33383A",
"B  c #363839",
"V  c #34393B",
"C  c #343A3B",
"Z  c #353A3D",
"A  c #363B3D",
"S  c #333C3E",
"D  c #333E3E",
"F  c #363C3D",
"G  c #363C3E",
"H  c #373D3F",
"J  c #401C13",
"K  c #411D13",
"L  c #421D13",
"P  c #431D13",
"I  c #451E13",
"U  c #4A2014",
"Y  c #4B2014",
"T  c #4C2014",
"R  c #4E2114",
"E  c #502214",
"W  c #532314",
"Q  c #552414",
"!  c #562414",
"~  c #572414",
"^  c #5F2714",
"/  c #602814",
"(  c #622814",
")  c #692B15",
"_  c #6B2C15",
"`  c #6C2C15",
"'  c #6D2E16",
"]  c #702D15",
"[  c #722E15",
"{  c #521020",
"}  c #781124",
"|  c #583123",
" . c #632636",
".. c #612D3F",
"X. c #6A283D",
"o. c #383E40",
"O. c #393F41",
"+. c #3A3F41",
"@. c #394142",
"#. c #3B4143",
"$. c #384344",
"%. c #3B4244",
"&. c #3E4446",
"*. c #3E4447",
"=. c #3E4547",
"-. c #3F4547",
";. c #3C4548",
":. c #3F4548",
">. c #3F4748",
",. c #3E484A",
"<. c #4F4A45",
"1. c #404648",
"2. c #414749",
"3. c #40484A",
"4. c #43494C",
"5. c #444C4E",
"6. c #454C4E",
"7. c #554F49",
"8. c #534B4E",
"9. c #4E544D",
"0. c #4F5453",
"q. c #4A5154",
"w. c #495254",
"e. c #4B5557",
"r. c #4C5657",
"t. c #4E5659",
"y. c #4F5659",
"u. c #4F5A5D",
"i. c #50585B",
"p. c #51585B",
"a. c #505A5C",
"s. c #535B5E",
"d. c #515D5E",
"f. c #525C5E",
"g. c #535E60",
"h. c #555D60",
"j. c #555E61",
"k. c #545F61",
"l. c #565E61",
"z. c #575F63",
"x. c #566165",
"c. c #5F6661",
"v. c #586064",
"b. c #596165",
"n. c #5A6467",
"m. c #5A676A",
"M. c #5E676A",
"N. c #5A6A69",
"B. c #5C6B6B",
"V. c #5E6C6D",
"C. c #616A6D",
"Z. c #616A6E",
"A. c #646E71",
"S. c #656E72",
"D. c #656F72",
"F. c #647072",
"G. c #667476",
"H. c #697577",
"J. c #6A7478",
"K. c #697778",
"L. c #6C767A",
"P. c #6E797D",
"I. c #6C7C7D",
"U. c #6E7C7E",
"Y. c #930D2C",
"T. c #960E2F",
"R. c #9B0C2E",
"E. c #8D1B37",
"W. c #86593B",
"Q. c #8A6C57",
"!. c #81615F",
"~. c #937F72",
"^. c #A66160",
"/. c #A27F66",
"(. c #C07073",
"). c #A2867F",
"_. c #CE9E7E",
"`. c #717C80",
"'. c #727E82",
"]. c #737F83",
"[. c #718082",
"{. c #748184",
"}. c #778588",
"|. c #788689",
" X c #758888",
".X c #758989",
"XX c #7B8A8D",
"oX c #7C8C8F",
"OX c #7F8E8F",
"+X c #7E9192",
"@X c #7D9392",
"#X c #838982",
"$X c #809596",
"%X c #829496",
"&X c #8D9792",
"*X c #869994",
"=X c #839898",
"-X c #84999A",
";X c #86999A",
":X c #879E9E",
">X c #899D9E",
",X c #899F9F",
"<X c #B6A293",
"1X c #B5B594",
"2X c #BABA99",
"3X c #BFBF9D",
"4X c #8B9FA0",
"5X c #89A1A0",
"6X c #8AA0A0",
"7X c #8DA2A3",
"8X c #8DA3A4",
"9X c #8CA4A4",
"0X c #91A8A8",
"qX c #91AAA9",
"wX c #92AAAA",
"eX c #92ABAA",
"rX c #92ABAB",
"tX c #95ADAD",
"yX c #95AFAE",
"uX c #97B0B0",
"iX c #99B4B3",
"pX c #9FBBBA",
"aX c #A4B5AD",
"sX c #B1BBA9",
"dX c #A5BFBB",
"fX c #B2C1B4",
"gX c #C2C2A0",
"hX c #C3C3A1",
"jX c #C4C4A2",
"kX c #C5C5A3",
"lX c #C7C7A5",
"zX c #C9C9A7",
"xX c #CECEAC",
"cX c #D3D3B1",
"vX c #E0E0BD",
"bX c #E2E2BE",
"nX c #BED0C1",
"mX c #E4E4C1",
"MX c #E9E9C5",
"NX c #EFEFCB",
/* pixels */
"                                                                                                    ",
"                                                                                                    ",
"                                                                                                    ",
"                                                                                                    ",
"                                      :X XeX                                                        ",
"                              ].>XG.>.U.f.[.5.@X                                                    ",
"                              j.L.Z.M.XXF.A.j.y.                                                    ",
"                              C F &.K.fXaX4X|.                                                      ",
"                                6 l @.9.*XN.                                                        ",
"                                2 f s = g.v                                                         ",
"                                6 n s = 6 2                                                         ",
"                                  u s = = =                                                         ",
"                                  N y.L.L.L.                                                        ",
"                              1.v.j u n n n                                                         ",
"                        L.uX6X>.&.s.k 2 2 =  X                                                      ",
"                        L.L.{.@Xy q.j.1.1.f O.>X                                                    ",
"                      L.L.L.{.@Xy s.oXoX&X0.#XoXA                                                   ",
"                      L.L.K.n.B.y V.pXpXnXc.sXdXF                                                   ",
"                        i.i.y.1.y j.eXpXpXf.6XpXF .                                                 ",
"                        s.j.].U.y q.}.%XtXf.6X;XF =                                                 ",
"                        L.L.{.@X2 x v.L.7Xf.6X].A 2 2                                               ",
"                      N L.eX=XN = 2 x 4.r.%.e.5.C 2 2                                               ",
"                      Z.&.q.3.= = = u N i.@XH.O.t 2 + 2                                             ",
"                      L.A.A.    6 v s g F &.@.C 2 + = 2                                             ",
"                      L.L.L.    9 = u m j.8X{.O.  2 = .                                             ",
"                      P.P.pX    Y | p h C C C C '   8 W.W.                                          ",
"                      eXeXeX  0 0 R _ _ _ _ _ _ K   W.W.W.                                          ",
"                      N 7.<.+ 0 0 e K K I I I I '   W.W.W.                                          ",
"                        /._.- 0 0 Y ! / [ [ [ [ [                                                   ",
"                      r r Q.0 0 0 K ^ [ [ [ [ [ [ [                                                 ",
"                      (.R.X 0 0 0 E [ [ [ [ [ [ [ [                                                 ",
"                      ).^.{ 0 0 K / [ [ [ [ [ [ [ [ [                                               ",
"                    <X~.!.Y.0 0 R [ [ [ [ [ [ [ [ [ [                                               ",
"                  NXNX1X..Y.0 0 R [ [ [ [ [ [ [ [ [ [                                               ",
"                  NXlX  ..Y.0 0 R [ [ [ [ E ) [ [ [                                                 ",
"                NXNX2X  ..T. .} q ! [ [ [ Y K ' [                                                   ",
"                NXhX      X.E.8.0 q ! ! e 8 , 3                                                     ",
"              NXNX3X      x.x.x.x.    0 8 , = 2                                                     ",
"              NXjX        tX9Xm.x.    = 2 , 2 2                                                     ",
"            NXMXhX        D %.%Xx.      2 = =                                                       ",
"            NXzX          iXu.s         = # +                                                       ",
"            mXjX          ;Xx.            = 2                                                       ",
"          NXxX            x.x.            2 2                                                       ",
"          vXjX            >.>.            = =                                                       ",
"        NXcX            ,.s s             . . .                                                     ",
"        vXhX          s D s s             . . . .                                                   ",
"                      y s s s             . . . .                                                   ",
"                                                                                                    ",
"                                                                                                    ",
"                                                                                                    "
};
