/* XPM */
static char *_f2b0448a8da483cce450aeb6f3f5526xaIcRurLoms1j2Ro[] = {
/* columns rows colors chars-per-pixel */
"50 50 127 2 ",
"   c #5D5D5D",
".  c #717171",
"X  c DimGray",
"o  c gray43",
"O  c #4E4E4E",
"+  c gray45",
"@  c gray44",
"#  c #676767",
"$  c #686868",
"%  c #6C6C6C",
"&  c #6D6D6D",
"*  c #6F6F6F",
"=  c #373737",
"-  c gray42",
";  c #747474",
":  c gray51",
">  c #767676",
",  c #656565",
"<  c #727272",
"1  c #646464",
"2  c gray36",
"3  c #777777",
"4  c gray47",
"5  c #3A3A3A",
"6  c gray58",
"7  c #939393",
"8  c gray57",
"9  c #8B8B8B",
"0  c #8E8E8E",
"q  c #898989",
"w  c gray54",
"e  c gray55",
"r  c #888888",
"t  c #808080",
"y  c #848484",
"u  c #8D8D8D",
"i  c gray56",
"p  c #6A6A6A",
"a  c gray53",
"s  c #818181",
"d  c #909090",
"f  c #929292",
"g  c gray39",
"h  c #979797",
"j  c #5F5F5F",
"k  c #959595",
"l  c #868686",
"z  c #7E7E7E",
"x  c #7C7C7C",
"c  c gray49",
"v  c gray52",
"b  c gray28",
"n  c gray48",
"m  c #626262",
"M  c #3F3F3F",
"N  c gray40",
"B  c #555555",
"V  c #444444",
"C  c gray27",
"Z  c #838383",
"A  c #434343",
"S  c #565656",
"D  c #797979",
"F  c #606060",
"G  c gray37",
"H  c #7B7B7B",
"J  c #585858",
"K  c gray46",
"L  c gray38",
"P  c gray33",
"I  c #505050",
"U  c #5B5B5B",
"Y  c #464646",
"T  c #5A5A5A",
"R  c gray26",
"E  c #323232",
"W  c #3E3E3E",
"Q  c gray24",
"!  c gray50",
"~  c #494949",
"^  c gray34",
"/  c #535353",
"(  c gray30",
")  c gray61",
"_  c #515151",
"`  c gray35",
"'  c #2F2F2F",
"]  c #A5A5A5",
"[  c #A4A4A4",
"{  c gray65",
"}  c gray59",
"|  c #A7A7A7",
" . c #A2A2A2",
".. c gray63",
"X. c gray60",
"o. c #9A9A9A",
"O. c #9D9D9D",
"+. c #9F9F9F",
"@. c gray62",
"#. c #A0A0A0",
"$. c #989898",
"%. c #9B9B9B",
"&. c gray31",
"*. c gray19",
"=. c gray32",
"-. c #484848",
";. c #2D2D2D",
":. c #353535",
">. c gray64",
",. c gray67",
"<. c #393939",
"1. c gray21",
"2. c #4C4C4C",
"3. c #4B4B4B",
"4. c #A9A9A9",
"5. c gray66",
"6. c gray68",
"7. c #414141",
"8. c gray29",
"9. c #3C3C3C",
"0. c #AAAAAA",
"q. c #AEAEAE",
"w. c gray69",
"e. c #AFAFAF",
"r. c #ACACAC",
"t. c gray25",
"y. c #343434",
/* pixels */
"  . X o O + @ o # $ % o & * @ @ . . @ @ @ & = X & & & o & * - $ & ; : > , $ < 1 X & 2 < o 3 4 + @ 5 ",
"3 6 7 8 @ 9 0 q q w w e w q r t t y q u i u p w i u q r a a s q 9 9 d f g s r w y y p 8 9 h f 0 < j ",
"4 k k d p : l r w 9 r 9 9 q l z x c t 9 0 d o v 8 0 l v l y 9 e 9 w u i b q x v n m M $ $ N o B V % ",
"* d h 8 g C > Z w w v s a q a y Z t x + z t , t 9 y x s q i i u 9 w q t A z < g 1 S . @ D n > z   + ",
"; s i q B F G g N . s y n 4 n D H : w 9 s s J x v > s t s t : l q s D . X u l q k i p % & K + c L + ",
"g p P I U Z : z x K F Y J 1 T R E W m x ; $ Q L . v t x H c c x 4 ! * P > q s l v Z n ~ ^ U L / M / ",
", 9 i @ ( L g F ! n x : a r w 6 ) * v l : n . , z t c D > + & o ; , & > K c x D ! z ! _ % s 9 r y - ",
"L ` ( j n t > * ! ! v 0 d r Z s s o y : n > > ^ 3 @ @ . < @ @ X 1 D 8 * X . * < 3 n x T < n D D 4 N ",
"m r L D H n * n t s ! z q 9 y z H U c z ; ~ o s x H *   3 x < . $ F 1 ' ` > 3 K < . < 2 d Z K g m U ",
"4 9 N < n > @ D n c z x n Z a v z 4 ] [ { H ! Z u 8 d % 6 h 7 7 } c & P L ; / / # * @ 2 * X @ _ g . ",
"3 a % # L 2 X % p N p n 4 3 : w w s |  ...u x l q 0 t v X.} 6 6 e u o.0 X.h 3 z 0 O.+.+.7 D ! * X * ",
"@ z . B p X , #   , m ` , # F # % 4 ) @.#.8 * Z v > : 7 k 6 $.7 k %.k $.%.O.y 0 y f X.O.u r c 4 % < ",
"&.p * s Z D %   *.=.^ T J -.;.-.- g - T X X o g :.H f e d h h } O.X.} o.X.h v } u a u %.} Z % > P j ",
"*.z $.o.h } 6 e N %.O.6 { +.p ; Z f l T r r v y 4 c 7 8 6 h } o.%.o.$.$.X.d x + n + X # - L * 3 o ( ",
"% o } $.h k f u y  .>.>.,.,.K o . 4 x * q a a r l x 8 f } X.O.#.@.) X.$.} d D + D & ` i f 9 a D Z ; ",
"> ; f $.6 8 a 4 n 0 [  . . .n * . K n + v 9 l y y : X.X.) %.O.O.%.) X.X.7 X.K ! q q j , > s t H o S ",
"% K : i e y t p 3 8 6 [ [ >.H X o + D # x i u e e s 7 k k k k h X.} 6 h $.h $ y 7 c - - G 4 t ! z j ",
"% ; @ e 9 t < 4 o 7 9 } o.} % U o K > @ $ f X.X.} 9 ! f d 0 u 0 u : z q k c , o.s N % K p G % c ! $ ",
"* q c r l + K y ( j . # m $ 4 w i u u 0 . e h %.X.h g q i e r v l e i u l I $ t . / K K K . - - K , ",
"o v w < n n z l =.> z : Y w u 0 0 e e 9 p y r w u l <.C ` I ( X D D 3 x O ~ F ` ( 5 ; K ; K ; + . G ",
"N : : # + 4 s ! * u f e T q e a Z y ! B 1.- . + < $ N t K 2.4 n 4 D x c 1 l 9 w v < , g # & . K ;   ",
"O X % @ < z s a 3 u u u m p F . D < - ; v o J Z a p y v v U 4 > > > t c . l a a s a + c t ! c D n m ",
"L K Z n ~ F p . N ; 4   / X 9 } k d c k X.d 1 v Z H Z Z y g > s z z H 4 < s Z : l l ; : v q w v ! 1 ",
"o 3 ; c p r y r v y x b u } X.o.h k w Z X.k o Z c : : : Z - o n l D 3 3 # D t y a : ; 9 w u 8 0 v m ",
"* D 3 % - e i q : y y J e f k h o.o.} D 6 7 - o $ > c s Z x T o & . K > g n 0 e s : K 9 r y t a r * ",
"P # g g U f 8 8 r c Z & r 9 k } } } $.w v d T / @ c c t Z v -.o % X & < G j e t t y 3.U $ $ @ F - m ",
"Z  .>.[ x s f f d a ! 1 3 x r 8 6 $.h h v w p > ; 3 y : y x *.U F j T / b = O   < K r q i 8 f n > y ",
"v 4.5.6.9 ~ o 3 H . m , a H ! v a d 6 6 e Z L 4 y 3 ! ; 1 p 1 & n z 4 4 H > . U a u a 0 h e a r D q ",
"9 ,.6.4.a ! x 4 3 ; o H k 8 v y s ! d 0 u l 2.7.g c y u i 9 w f 6 8 8 f u 9 9 ! u i w z u $.q r @ q ",
"0 5.] ] n w z c n K + * 6 6 d 0 r D H a r 9 =.& u u 0 8 8 0 8 k f 8 8 0 u e 0 e & s d e n Z o g R ` ",
"&.3.R W b z + & # g G U } k 7 h f q x D $ 8.@ 9 9 0 d 7 7 f d d i 0 i 8 7 8 i i s U A * G 9.E I < # ",
"u 5.0.{ +.[  .@.} 6 x / O B p G * ; N F F m 9 w 9 w 8 7 7 7 f f d d d d i i 9 w 9 a ^ 4 H % x O.#.s ",
"i ,.q.w.e.r.{ 4.] #.O.) 6 x m r w 8 i s ! p 9 9 9 v Z a 7 f d 8 d u e e u u i i 7 l & K c # l 7 $.! ",
"v [ ,.6.4...,.0.] ......#.@.  H a r r q : @ q 9 q q s t H z Z r r a a r q w 9 9 u n K D H L 8 d f D ",
"l O.>.4.5.r.| { | | {  .+.#.4 > z l r 0 9 < : w r w a ! > < @ < > c c Z r r q q w - % K > J 6 f f n ",
"v ) h ] 5.0.{ 6.0.0.4.>. ...} U N + X , U b -.O g * $ . D n 4 + < & p % K . - $ F 2.Y =.^ _ $.} k D ",
"y O.X.$.0.5.4.4.|  .>.{ | ] ) U n x z ! z y ! t F ; r q a z ; p   Q T X ; t Z v 0 9 a a 9 H O.%.%.n ",
": ) %.q 5.0.5.5.{ >.[ O.o.h 7 * Z a y s t t : z o l i 8 8 f 8 0 9   y 8 7 f i d h } u a l s @.$.O.H ",
"c ) ) w ) 5.5.4.0... .7 o.@.H x r l Z y a 0 d w m e 9 v : : : r 8 # Z Z f 7 7 f 6 } $.f e 3 o.o.O.t ",
"; 8 u y w f } i q q r t H : ( x a r 9 e 0 y l y 3.* D z n K $ /   p c > 3 9 f f 6 6 h ) O.N c h %.! ",
"5 <.A _ 2 $ & % - p 2 G F S -.> y a Z ! t H + - P a x 7 v H < P * Z x 4 & % x w u 8 f d u & g - g b ",
"1 ` I g % o % X , L $ K n y 2 3.U @ 4 3 g 2.I 2.H 7 0 } 8 u 9 K < ! ! z x & @ x v a 9 w l % v v Z # ",
"3 4 F 1 L L F ` G - & o * p T A : Z a u d h @.l ! f H 0 0 0 0 a + n c c H 4 @ . D z t Z ! g t Z Z @ ",
"; H j F U j U ` $ $ X m / -., L d 6 o.O.+.%.o.f g i a z t y e u U =.G . 3 > 4 K . ; n z ; S n s s < ",
"+ : / G F G O T j L I Y I X . X l 6 } @.O.O.h X.M Y @ K o Z Z e U n o N + n K + * @ * L ( O x Z l . ",
"X 1 9.t.V M Y R b C A 2./ F 2 . e d X.$.#...@.o.S . 1 N < 4 4 - U j 8.b p n 4 & < % L y 8 ! m x ! * ",
"& : : H H 3 T R # < ; n x 4 - P =.o 7 } $.o.X.4 4 6 9 a e d 6 a y w y J H $.%.X.7 9 g 9 r l F Y T ` ",
"> f k u w a 4 d $.7 $.} 6 f f 0 r < g 3 k o.i L 6 0 w 9 u 0 u w v a l < Z n } 8 f i F Z : c + T Z . ",
"4 d f i d H u o.u i 6 } 6 6 k k 6 8 y J P z + # f 9 q e q 0 e r u l q K w > : i q 0 P + K D c g : < ",
"Y R =.G 3.A @ N , # p p & K D x x n D 4 g ' y.p n K + K K 4 K ; H D c + U < L ; 4 D 7.J ` ^ =.V _ V "
};
